;FLAVOR:Marlin
;TIME:19679
;Filament used: 18.0072m
;Layer height: 0.15
;MINX:24.641
;MINY:58.732
;MINZ:0.3
;MAXX:210.359
;MAXY:175.428
;MAXZ:16.475
;TARGET_MACHINE.NAME:ELEGOO NEPTUNE 3 Pro
;Generated with Cura_SteamEngine 5.10.0
M140 S60
M105
M190 S60
M104 S210
M105
M109 S210
;ELEGOO NEPTUNE 3 Pro
M220 S100 ;Set the feed speed to 100%
M221 S100 ;Set the flow rate to 100%
G90
G28 ;home
;M420 S1 Z10;Uncomment to enable progressive compensation height of 10mm
G92 E0 ;Reset Extruder
G1 Z0.45 F300
G1 X1.5 Y20 F5000.0 ;Move to start position
G1 Y120.0 F600.0 E15 ;Draw the first line
G1 X0.5 F1000.0 ;Move to side a little
G1 Y20 F600 E30 ;Draw the second line
G92 E0 ;Reset Extruder
M82 ;absolute extrusion mode
G92 E0
G92 E0
G1 F1500 E-1
;LAYER_COUNT:103
;LAYER:-6
M107
M204 S1000
G0 F9000 X47.896 Y65.919 Z0.3
;TYPE:SUPPORT-INTERFACE
G1 F1500 E0
G1 F720 X48.785 Y65.338 E0.10597
G1 X49.546 Y64.907 E0.19323
G1 X50.838 Y64.285 E0.33631
G1 X50.861 Y64.301 E0.33911
G1 X51.507 Y64.051 E0.40822
G1 X52.697 Y63.692 E0.53225
G1 X53.745 Y63.462 E0.63931
G1 X54.595 Y63.334 E0.72508
G1 X55.889 Y63.226 E0.85464
G1 X104.184 Y63.228 E5.67354
G1 X105.175 Y63.264 E5.77248
G1 X106.221 Y63.374 E5.87743
G1 X106.234 Y63.363 E5.87913
G1 X107.276 Y63.563 E5.985
G1 X108.393 Y63.848 E6.10002
G1 X109.261 Y64.147 E6.19163
G1 X109.271 Y64.141 E6.19279
G1 X110.376 Y64.606 E6.31241
G1 X111.387 Y65.137 E6.42636
G1 X112.23 Y65.646 E6.52462
G1 X113.157 Y66.32 E6.63898
G1 X113.964 Y66.998 E6.74415
G1 X114.604 Y67.611 E6.83257
G1 X115.344 Y68.429 E6.94264
G1 X115.797 Y68.988 E7.01443
G1 X118.842 Y72.964 E7.51414
G1 X119.293 Y73.476 E7.58222
G1 X119.81 Y73.94 E7.65153
G1 X120.359 Y74.316 E7.71793
G1 X120.982 Y74.635 E7.78777
G1 X121.627 Y74.869 E7.85623
G1 X122.181 Y74.993 E7.91287
G1 X122.397 Y75.098 E7.93684
G1 X122.66 Y75.106 E7.96309
G1 X122.699 Y75.053 E7.96966
G1 X122.952 Y75.075 E7.995
G1 X123.812 Y75.05 E8.08085
G1 X124.323 Y74.949 E8.13282
G1 X125.003 Y74.748 E8.20357
G1 X125.595 Y74.486 E8.26817
G1 X126.174 Y74.144 E8.33527
G1 X126.704 Y73.731 E8.40231
G1 X127.393 Y72.997 E8.50276
G1 X128.244 Y71.895 E8.64169
G1 X128.946 Y71.056 E8.75085
G1 X129.674 Y70.301 E8.8555
G1 X130.5 Y69.569 E8.96562
G1 X131.241 Y68.994 E9.05921
G1 X132.218 Y68.35 E9.17597
G1 X133.08 Y67.86 E9.2749
G1 X134.113 Y67.381 E9.38852
G1 X134.954 Y67.054 E9.47855
G1 X135.968 Y66.731 E9.58474
G1 X137.205 Y66.458 E9.71114
G1 X138.05 Y66.334 E9.79636
G1 X139.221 Y66.236 E9.91361
G1 X139.848 Y66.224 E9.97618
G1 X141.148 Y66.224 E10.1059
G1 X141.802 Y66.184 E10.17127
G1 X142.465 Y66.057 E10.23863
G1 X143.127 Y65.843 E10.30805
G1 X143.719 Y65.566 E10.37327
G1 X144.382 Y65.151 E10.45131
G1 X145.092 Y64.612 E10.54026
G1 X145.667 Y64.03 E10.62189
G1 X146.155 Y63.46 E10.69676
G1 X146.923 Y62.688 E10.80542
G1 X147.599 Y62.089 E10.89554
G1 X148.508 Y61.391 E11.0099
G1 X149.339 Y60.851 E11.10878
G1 X150.349 Y60.286 E11.22426
G1 X151.377 Y59.823 E11.33676
G1 X152.41 Y59.438 E11.44676
G1 X152.419 Y59.445 E11.44789
G1 X153.422 Y59.157 E11.55202
G1 X154.307 Y58.966 E11.64236
G1 X155.415 Y58.807 E11.75405
G1 X156.851 Y58.732 E11.89753
G1 X164.596 Y58.732 E12.67032
G1 X165.587 Y58.768 E12.76927
G1 X166.633 Y58.878 E12.87422
G1 X166.646 Y58.867 E12.87592
G1 X167.687 Y59.067 E12.98169
G1 X168.805 Y59.356 E13.09691
G1 X169.675 Y59.651 E13.18857
G1 X169.684 Y59.644 E13.18971
G1 X170.788 Y60.114 E13.30944
G1 X171.791 Y60.637 E13.4223
G1 X172.642 Y61.154 E13.52166
G1 X173.57 Y61.824 E13.63587
G1 X174.38 Y62.502 E13.74127
G1 X175.087 Y63.186 E13.83942
G1 X175.813 Y63.999 E13.94818
G1 X176.29 Y64.5 E14.0172
G1 X176.971 Y65.056 E14.10492
G1 X177.728 Y65.542 E14.19469
G1 X178.375 Y65.849 E14.26614
G1 X179.002 Y66.054 E14.33196
G1 X179.682 Y66.184 E14.40104
G1 X180.314 Y66.224 E14.46423
G1 X181.72 Y66.228 E14.60452
G1 X182.711 Y66.264 E14.70347
G1 X183.757 Y66.374 E14.80842
G1 X183.77 Y66.363 E14.81011
G1 X184.812 Y66.563 E14.91598
G1 X185.929 Y66.848 E15.03101
G1 X186.793 Y67.147 E15.12224
G1 X186.803 Y67.14 E15.12345
G1 X187.913 Y67.607 E15.24361
G1 X188.915 Y68.133 E15.35653
G1 X189.762 Y68.646 E15.45534
G1 X190.689 Y69.32 E15.5697
G1 X191.504 Y70.002 E15.67574
G1 X192.136 Y70.611 E15.76331
G1 X192.88 Y71.429 E15.87364
G1 X193.337 Y71.996 E15.94631
G1 X198.597 Y78.857 E16.80894
G1 X199.234 Y79.762 E16.91936
G1 X199.574 Y80.305 E16.98329
G1 X202.616 Y85.431 E17.57805
G1 X203.119 Y86.35 E17.68258
G1 X203.444 Y87.039 E17.7586
G1 X205.866 Y92.511 E18.35569
G1 X206.304 Y93.618 E18.47448
G1 X206.499 Y94.195 E18.53525
G1 X208.307 Y100.102 E19.15164
G1 X208.57 Y101.108 E19.25539
G1 X208.703 Y101.749 E19.32072
G1 X209.768 Y107.671 E19.92109
G1 X209.926 Y108.811 E20.03593
G1 X209.968 Y109.36 E20.09087
G1 X210.336 Y115.465 E20.70114
G1 X210.359 Y116.446 E20.79905
G1 X210.332 Y117.265 E20.88081
G1 X209.989 Y123.093 E21.46334
G1 X209.878 Y124.282 E21.58249
G1 X209.765 Y124.992 E21.65423
G1 X208.671 Y131.037 E22.2672
G1 X208.416 Y132.19 E22.38503
G1 X206.499 Y138.451 E23.03838
G1 X206.126 Y139.52 E23.15135
G1 X205.888 Y140.085 E23.21252
G1 X203.44 Y145.623 E23.81669
G1 X203.001 Y146.53 E23.91723
G1 X202.609 Y147.223 E23.99668
G1 X199.543 Y152.397 E24.59678
G1 X199.002 Y153.233 E24.69613
G1 X198.547 Y153.86 E24.77343
G1 X193.267 Y160.742 E25.63894
G1 X192.558 Y161.596 E25.74969
G1 X191.831 Y162.346 E25.85392
G1 X191 Y163.084 E25.96481
G1 X190.262 Y163.658 E26.0581
G1 X189.287 Y164.302 E26.17469
G1 X188.42 Y164.792 E26.27406
G1 X187.391 Y165.271 E26.38732
G1 X186.547 Y165.598 E26.47763
G1 X185.531 Y165.921 E26.58401
G1 X184.299 Y166.194 E26.70992
G1 X183.454 Y166.318 E26.79514
G1 X182.279 Y166.416 E26.91278
G1 X181.656 Y166.428 E26.97496
G1 X180.352 Y166.428 E27.10507
G1 X179.671 Y166.471 E27.17316
G1 X179.036 Y166.593 E27.23768
G1 X178.355 Y166.818 E27.30924
G1 X177.769 Y167.091 E27.37375
G1 X177.105 Y167.509 E27.45204
G1 X176.388 Y168.046 E27.54142
G1 X175.717 Y168.737 E27.63753
G1 X175.489 Y169.009 E27.67294
G1 X174.859 Y169.674 E27.76434
G1 X173.97 Y170.489 E27.88468
G1 X173.109 Y171.155 E27.9933
G1 X172.22 Y171.755 E28.10031
G1 X171.373 Y172.237 E28.19755
G1 X170.499 Y172.661 E28.29448
G1 X169.341 Y173.115 E28.41859
G1 X168.516 Y173.382 E28.50511
G1 X167.433 Y173.635 E28.61608
G1 X166.354 Y173.814 E28.72522
G1 X165.263 Y173.904 E28.83445
G1 X164.519 Y173.92 E28.9087
G1 X156.904 Y173.92 E29.66853
G1 X155.909 Y173.884 E29.76788
G1 X154.782 Y173.763 E29.88098
G1 X153.812 Y173.585 E29.97938
G1 X152.608 Y173.268 E30.10361
G1 X151.826 Y173.001 E30.18606
G1 X151.816 Y173.008 E30.18728
G1 X150.715 Y172.541 E30.30661
G1 X149.836 Y172.086 E30.40537
G1 X148.959 Y171.56 E30.50741
G1 X148.009 Y170.89 E30.6234
G1 X147.117 Y170.143 E30.7395
G1 X146.33 Y169.375 E30.84922
G1 X145.286 Y168.198 E31.0062
G1 X144.428 Y167.499 E31.11663
G1 X143.667 Y167.038 E31.20541
G1 X143.066 Y166.77 E31.27107
G1 X142.413 Y166.569 E31.33924
G1 X141.58 Y166.433 E31.42346
G1 X139.784 Y166.424 E31.60267
G1 X138.788 Y166.388 E31.70211
G1 X137.662 Y166.271 E31.81507
G1 X136.692 Y166.089 E31.91355
G1 X135.488 Y165.772 E32.03778
G1 X134.706 Y165.505 E32.12023
G1 X134.696 Y165.512 E32.12145
G1 X133.595 Y165.045 E32.24078
G1 X132.715 Y164.59 E32.33963
G1 X131.839 Y164.068 E32.44138
G1 X130.889 Y163.394 E32.5576
G1 X129.968 Y162.626 E32.67726
G1 X129.251 Y161.934 E32.77669
G1 X128.779 Y161.534 E32.83842
G1 X128.185 Y161.147 E32.90916
G1 X127.579 Y160.849 E32.97654
G1 X126.935 Y160.632 E33.04435
G1 X126.267 Y160.495 E33.11239
G1 X125.565 Y160.448 E33.18259
G1 X124.888 Y160.485 E33.25024
G1 X124.049 Y160.638 E33.33534
G1 X123.568 Y160.816 E33.38652
G1 X122.98 Y161.084 E33.45099
G1 X122.382 Y161.457 E33.52132
G1 X121.876 Y161.871 E33.58655
G1 X121.241 Y162.562 E33.68019
G1 X115.742 Y169.734 E34.58196
G1 X115.148 Y170.454 E34.67509
G1 X114.352 Y171.296 E34.79071
G1 X113.485 Y172.071 E34.90674
G1 X112.616 Y172.733 E35.01575
G1 X111.731 Y173.314 E35.12138
G1 X110.868 Y173.803 E35.22035
G1 X109.86 Y174.27 E35.3312
G1 X108.852 Y174.652 E35.43876
G1 X107.816 Y174.96 E35.54661
G1 X106.767 Y175.19 E35.65376
G1 X105.917 Y175.318 E35.73953
G1 X104.743 Y175.416 E35.85708
G1 X104.12 Y175.428 E35.91926
G1 X56.328 Y175.424 E40.68796
G1 X55.336 Y175.388 E40.78701
G1 X54.21 Y175.271 E40.89997
G1 X53.24 Y175.089 E40.99844
G1 X52.032 Y174.772 E41.12306
G1 X51.254 Y174.505 E41.20513
G1 X51.245 Y174.512 E41.20627
G1 X50.135 Y174.045 E41.32643
G1 X49.126 Y173.515 E41.44015
G1 X48.368 Y173.053 E41.52873
G1 X47.499 Y172.445 E41.63455
G1 X46.635 Y171.732 E41.74633
G1 X45.876 Y171.005 E41.8512
G1 X45.058 Y170.097 E41.97314
G1 X44.712 Y169.661 E42.02868
G1 X37.422 Y160.15 E43.22439
G1 X36.853 Y159.353 E43.3221
G1 X36.454 Y158.712 E43.39744
G1 X33.064 Y152.993 E44.06081
G1 X32.509 Y151.986 E44.17553
G1 X32.217 Y151.362 E44.24428
G1 X29.457 Y145.113 E44.92591
G1 X29.108 Y144.237 E45.02
G1 X28.853 Y143.481 E45.09961
G1 X26.881 Y137.05 E45.77079
G1 X26.601 Y135.974 E45.88173
G1 X26.493 Y135.485 E45.9317
G1 X25.271 Y128.691 E46.62049
G1 X25.118 Y127.638 E46.72666
G1 X25.063 Y126.975 E46.79304
G1 X24.66 Y120.172 E47.47304
G1 X24.641 Y119.063 E47.58371
G1 X24.66 Y118.459 E47.64401
G1 X25.056 Y111.84 E48.30563
G1 X25.045 Y111.829 E48.30718
G1 X25.162 Y110.694 E48.42104
G1 X25.271 Y109.949 E48.49616
G1 X26.497 Y103.195 E49.18109
G1 X26.685 Y102.331 E49.26932
G1 X26.833 Y101.783 E49.32596
G1 X28.873 Y95.121 E50.02116
G1 X29.259 Y94.018 E50.13777
G1 X29.497 Y93.433 E50.20078
G1 X32.223 Y87.274 E50.87284
G1 X32.738 Y86.232 E50.98881
G1 X33.05 Y85.681 E51.05199
G1 X36.493 Y79.879 E51.72518
G1 X37.011 Y79.074 E51.82069
G1 X37.477 Y78.427 E51.90025
G1 X44.782 Y68.91 E53.09735
G1 X45.369 Y68.197 E53.18951
G1 X46.164 Y67.356 E53.30498
G1 X47.036 Y66.577 E53.42165
G1 X47.896 Y65.919 E53.5297
G0 F9000 X48.138 Y66.24
G1 F720 X155.316 Y173.418 E68.65367
G0 F9000 X157.681 Y173.52
G1 F720 X49.534 Y65.373 E83.91438
G0 F9000 X51.072 Y64.649
G1 F720 X159.943 Y173.52 E99.27726
G0 F9000 X162.206 Y173.52
G1 F720 X52.774 Y64.087 E114.71936
G0 F9000 X54.678 Y63.729
G1 F720 X164.469 Y173.52 E130.21206
G0 F9000 X166.582 Y173.371
G1 F720 X56.839 Y63.627 E145.69805
G0 F9000 X59.101 Y63.627
G1 F720 X168.455 Y172.98 E161.12901
G0 F9000 X170.117 Y172.38
G1 F720 X61.364 Y63.627 E176.47524
G0 F9000 X63.627 Y63.627
G1 F720 X171.63 Y171.63 E191.71563
G0 F9000 X172.997 Y170.734
G1 F720 X65.89 Y63.627 E206.82958
G0 F9000 X68.152 Y63.627
G1 F720 X174.231 Y169.706 E221.79847
G0 F9000 X175.346 Y168.558
G1 F720 X70.415 Y63.627 E236.60537
G0 F9000 X72.679 Y63.628
G1 F720 X176.507 Y167.456 E251.25662
G0 F9000 X177.902 Y166.588
G1 F720 X74.941 Y63.628 E265.78546
G0 F9000 X77.204 Y63.628
G1 F720 X179.65 Y166.074 E280.2417
G0 F9000 X181.863 Y166.024
G1 F720 X79.467 Y63.628 E294.69088
G0 F9000 X81.73 Y63.628
G1 F720 X183.943 Y165.841 E309.11424
G0 F9000 X185.785 Y165.42
G1 F720 X83.992 Y63.628 E323.47826
G0 F9000 X86.255 Y63.628
G1 F720 X187.436 Y164.808 E337.75592
G0 F9000 X188.933 Y164.042
G1 F720 X88.518 Y63.628 E351.92549
G0 F9000 X90.781 Y63.628
G1 F720 X190.285 Y163.132 E365.96658
G0 F9000 X191.511 Y162.095
G1 F720 X93.044 Y63.628 E379.86134
G0 F9000 X95.307 Y63.628
G1 F720 X192.599 Y160.921 E393.59036
G0 F9000 X193.597 Y159.656
G1 F720 X97.569 Y63.628 E407.14095
G0 F9000 X99.832 Y63.628
G1 F720 X194.579 Y158.375 E420.51078
G0 F9000 X195.561 Y157.094
G1 F720 X102.095 Y63.628 E433.69984
G0 F9000 X104.365 Y63.635
G1 F720 X196.543 Y155.814 E446.70722
G0 F9000 X197.526 Y154.534
G1 F720 X106.888 Y63.896 E459.49722
G0 F9000 X110.244 Y64.989
G1 F720 X118.986 Y73.731 E460.73081
G1 X119.034 Y73.78
G1 X198.5 Y153.245 E471.94425
G0 F9000 X199.39 Y151.872
G1 F720 X122.994 Y75.477 E482.72448
G0 F9000 X124.956 Y75.176
G1 F720 X200.231 Y150.451 E493.3466
G0 F9000 X201.074 Y149.031
G1 F720 X126.468 Y74.425 E503.87431
G0 F9000 X127.632 Y73.326
G1 F720 X201.916 Y147.61 E514.35659
G0 F9000 X202.734 Y146.165
G1 F720 X128.628 Y72.059 E524.81374
G0 F9000 X129.69 Y70.859
G1 F720 X203.448 Y144.617 E535.22179
G0 F9000 X204.142 Y143.048
G1 F720 X130.877 Y69.783 E545.56028
G0 F9000 X132.199 Y68.842
G1 F720 X204.835 Y141.479 E555.81007
G0 F9000 X205.529 Y139.91
G1 F720 X133.654 Y68.035 E565.95241
G0 F9000 X135.259 Y67.377
G1 F720 X206.14 Y138.258 E575.95448
G0 F9000 X206.67 Y136.525
G1 F720 X137.048 Y66.903 E585.7789
G0 F9000 X139.06 Y66.652
G1 F720 X207.201 Y134.793 E595.39433
G0 F9000 X207.731 Y133.061
G1 F720 X141.286 Y66.616 E604.77044
G0 F9000 X143.179 Y66.245
G1 F720 X208.209 Y131.276 E613.94695
G0 F9000 X208.567 Y129.371
G1 F720 X144.648 Y65.452 E622.96661
G0 F9000 X145.861 Y64.403
G1 F720 X208.913 Y127.455 E631.86393
G0 F9000 X209.26 Y125.539
G1 F720 X146.95 Y63.228 E640.65661
G0 F9000 X148.153 Y62.169
G1 F720 X209.544 Y123.56 E649.31954
G0 F9000 X209.685 Y121.439
G1 F720 X149.483 Y61.236 E657.81477
G0 F9000 X150.96 Y60.451
G1 F720 X209.811 Y119.302 E666.11928
G0 F9000 X209.935 Y117.163
G1 F720 X152.586 Y59.813 E674.21191
G0 F9000 X154.393 Y59.358
G1 F720 X209.899 Y114.864 E682.04441
G0 F9000 X209.754 Y112.456
G1 F720 X156.452 Y59.154 E689.5659
G0 F9000 X158.693 Y59.133
G1 F720 X209.61 Y110.049 E696.75076
G0 F9000 X209.333 Y107.51
G1 F720 X160.956 Y59.133 E703.57728
G0 F9000 X163.219 Y59.133
G1 F720 X208.837 Y104.751 E710.01447
G0 F9000 X208.341 Y101.992
G1 F720 X165.514 Y59.165 E716.05783
G0 F9000 X168.233 Y59.622
G1 F720 X207.525 Y98.914 E721.60235
G0 F9000 X206.527 Y95.652
G1 F720 X172.273 Y61.399 E726.43589
G0 F9000 X179.722 Y66.585
G1 F720 X205.255 Y92.118 E730.03887
G0 F9000 X203.457 Y88.057
G1 F720 X182.04 Y66.64 E733.06104
G0 F9000 X184.591 Y66.928
G1 F720 X200.774 Y83.112 E735.34471
G0 F9000 X195.83 Y75.905
G1 F720 X188.064 Y68.138 E736.44065
G1 F1500 E735.44065
G0 F9000 X144.369 Y166.996
G1 F1500 E736.44065
G1 F720 X45.749 Y68.377 E750.35692
G0 F9000 X46.885 Y67.249
G1 F720 X152.414 Y172.779 E765.24828
G0 F9000 X141.143 Y166.034
G1 F720 X44.736 Y69.626 E778.85242
G0 F9000 X43.754 Y70.907
G1 F720 X138.837 Y165.99 E792.26965
G0 F9000 X136.105 Y165.521
G1 F720 X42.771 Y72.186 E805.44016
G0 F9000 X41.788 Y73.466
G1 F720 X132.047 Y163.725 E818.17668
G0 F9000 X126.144 Y160.085
G1 F720 X40.806 Y74.747 E830.21879
G0 F9000 X39.823 Y76.027
G1 F720 X124.031 Y160.235 E842.10145
G0 F9000 X122.465 Y160.931
G1 F720 X38.84 Y77.307 E853.90177
G0 F9000 X37.858 Y78.587
G1 F720 X121.241 Y161.971 E865.66809
G0 F9000 X120.232 Y163.224
G1 F720 X36.936 Y79.928 E877.42205
G0 F9000 X36.088 Y81.343
G1 F720 X119.25 Y164.505 E889.15711
G0 F9000 X118.268 Y165.785
G1 F720 X35.246 Y82.763 E900.87241
G0 F9000 X34.403 Y84.183
G1 F720 X117.286 Y167.066 E912.56809
G0 F9000 X116.304 Y168.347
G1 F720 X33.561 Y85.604 E924.24403
G0 F9000 X32.767 Y87.073
G1 F720 X115.316 Y169.622 E935.89258
G0 F9000 X114.251 Y170.82
G1 F720 X32.06 Y88.629 E947.49062
G0 F9000 X31.366 Y90.197
G1 F720 X113.06 Y171.891 E959.01853
G0 F9000 X111.737 Y172.831
G1 F720 X30.671 Y91.765 E970.45781
G0 F9000 X29.977 Y93.334
G1 F720 X110.278 Y173.635 E981.78915
G0 F9000 X108.669 Y174.288
G1 F720 X29.349 Y94.969 E992.98199
G0 F9000 X28.81 Y96.692
G1 F720 X106.874 Y174.756 E1003.99766
G0 F9000 X104.859 Y175.004
G1 F720 X28.279 Y98.424 E1014.80393
G0 F9000 X27.748 Y100.156
G1 F720 X102.62 Y175.027 E1025.36911
G0 F9000 X100.357 Y175.027
G1 F720 X27.218 Y101.888 E1035.68981
G0 F9000 X26.804 Y103.737
G1 F720 X98.094 Y175.027 E1045.7496
G0 F9000 X95.831 Y175.027
G1 F720 X26.456 Y105.652 E1055.53916
G0 F9000 X26.109 Y107.568
G1 F720 X93.568 Y175.027 E1065.05835
G0 F9000 X91.305 Y175.027
G1 F720 X25.762 Y109.483 E1074.30725
G0 F9000 X25.484 Y111.468
G1 F720 X89.042 Y175.027 E1083.27604
G0 F9000 X86.78 Y175.027
G1 F720 X25.351 Y113.598 E1091.94434
G0 F9000 X25.223 Y115.733
G1 F720 X84.516 Y175.026 E1100.31122
G0 F9000 X82.253 Y175.026
G1 F720 X25.096 Y117.868 E1108.37676
G0 F9000 X25.058 Y120.094
G1 F720 X79.991 Y175.026 E1116.12833
G0 F9000 X77.728 Y175.026
G1 F720 X25.198 Y122.496 E1123.54088
G0 F9000 X25.34 Y124.901
G1 F720 X75.465 Y175.026 E1130.61406
G0 F9000 X73.202 Y175.025
G1 F720 X25.493 Y127.316 E1137.34631
G0 F9000 X25.913 Y129.999
G1 F720 X70.939 Y175.025 E1143.69997
G0 F9000 X68.676 Y175.025
