;FLAVOR:Marlin
;TIME:15397
;Filament used: 11.8022m
;Layer height: 0.15
;MINX:77.212
;MINY:76.713
;MINZ:0.15
;MAXX:157.788
;MAXY:158.287
;MAXZ:31.95
;TARGET_MACHINE.NAME:ELEGOO NEPTUNE 3 Pro
;Generated with Cura_SteamEngine 5.10.0
M140 S70
M105
M190 S70
M104 S210
M105
M109 S210
;ELEGOO NEPTUNE 3 Pro
M220 S100 ;Set the feed speed to 100%
M221 S100 ;Set the flow rate to 100%
G90
G28 ;home
;M420 S1 Z10;Uncomment to enable progressive compensation height of 10mm
G92 E0 ;Reset Extruder
G1 Z0.45 F300
G1 X1.5 Y20 F5000.0 ;Move to start position
G1 Y120.0 F600.0 E15 ;Draw the first line
G1 X0.5 F1000.0 ;Move to side a little
G1 Y20 F600 E30 ;Draw the second line
G92 E0 ;Reset Extruder
M82 ;absolute extrusion mode
G92 E0
G92 E0
G1 F1500 E-1
;LAYER_COUNT:213
;LAYER:0
M107
M204 S500
G0 F6000 X92.654 Y78.431 Z0.15
;TYPE:SKIRT
G1 F1500 E0
G1 F2100 X93.258 Y77.841 E0.02875
G1 X94.361 Y77.185 E0.07245
G1 X94.878 Y76.974 E0.09146
G1 X96.158 Y76.713 E0.13594
G1 X138.861 Y76.713 E1.58998
G1 X140.104 Y76.971 E1.63321
G1 X140.744 Y77.242 E1.65687
G1 X141.776 Y77.863 E1.69788
G1 X142.618 Y78.739 E1.73926
G1 X148.255 Y86.131 E2.05579
G1 X151.407 Y91.445 E2.26617
G1 X154.325 Y98.048 E2.51198
G1 X156.126 Y103.913 E2.72088
G1 X157.427 Y111.14 E2.97092
G1 X157.788 Y117.818 E3.19864
G1 X157.422 Y123.922 E3.40685
G1 X156.126 Y131.087 E3.65478
G1 X154.332 Y136.932 E3.86297
G1 X151.383 Y143.598 E4.11116
G1 X148.045 Y149.176 E4.3325
G1 X142.346 Y156.569 E4.65035
G1 X141.742 Y157.159 E4.6791
G1 X140.639 Y157.815 E4.7228
G1 X140.122 Y158.026 E4.74181
G1 X138.842 Y158.287 E4.78629
G1 X96.139 Y158.287 E6.24033
G1 X94.896 Y158.029 E6.28356
G1 X94.256 Y157.758 E6.30722
G1 X93.224 Y157.137 E6.34823
G1 X92.382 Y156.261 E6.38961
G1 X86.745 Y148.869 E6.70614
G1 X83.591 Y143.553 E6.91661
G1 X80.674 Y136.95 E7.1624
G1 X78.874 Y131.087 E7.37124
G1 X77.573 Y123.86 E7.62127
G1 X77.212 Y117.182 E7.84899
G1 X77.578 Y111.078 E8.0572
G1 X78.874 Y103.913 E8.30513
G1 X80.668 Y98.068 E8.51332
G1 X83.59 Y91.458 E8.7594
G1 X86.995 Y85.768 E8.98519
G1 X92.654 Y78.431 E9.30069
G0 F6000 X93.036 Y78.822
G1 F2100 X93.596 Y78.275 E9.32734
G1 X94.64 Y77.654 E9.3687
G1 X95.035 Y77.499 E9.38315
G1 X96.213 Y77.259 E9.42409
G1 X138.803 Y77.259 E10.87428
G1 X139.941 Y77.495 E10.91385
G1 X140.531 Y77.745 E10.93567
G1 X141.432 Y78.293 E10.97158
G1 X142.184 Y79.07 E11.0084
G1 X147.785 Y86.41 E11.32278
G1 X150.937 Y91.724 E11.53316
G1 X153.803 Y98.208 E11.77454
G1 X155.604 Y104.073 E11.98345
G1 X156.882 Y111.17 E12.22899
G1 X157.243 Y117.785 E12.45457
G1 X156.877 Y123.889 E12.66278
G1 X155.604 Y130.927 E12.90632
G1 X153.81 Y136.772 E13.1145
G1 X150.914 Y143.318 E13.35823
G1 X147.612 Y148.843 E13.5774
G1 X141.964 Y156.178 E13.89262
G1 X141.404 Y156.725 E13.91927
G1 X140.36 Y157.346 E13.96063
G1 X139.965 Y157.501 E13.97508
G1 X138.787 Y157.741 E14.01602
G1 X96.197 Y157.741 E15.46621
G1 X95.059 Y157.505 E15.50578
G1 X94.469 Y157.255 E15.5276
G1 X93.568 Y156.707 E15.56351
G1 X92.816 Y155.93 E15.60033
G1 X87.215 Y148.59 E15.91471
G1 X84.061 Y143.274 E16.12518
G1 X81.196 Y136.79 E16.36655
G1 X79.396 Y130.927 E16.57538
G1 X78.118 Y123.83 E16.82092
G1 X77.757 Y117.215 E17.0465
G1 X78.123 Y111.111 E17.25472
G1 X79.396 Y104.073 E17.49825
G1 X81.19 Y98.228 E17.70644
G1 X84.089 Y91.679 E17.9503
G1 X87.428 Y86.101 E18.17166
G1 X93.036 Y78.822 E18.48454
G0 F6000 X93.418 Y79.213
G1 F2100 X93.934 Y78.709 E18.5091
G1 X94.853 Y78.157 E18.5456
G1 X95.144 Y78.034 E18.55636
G1 X96.268 Y77.805 E18.59542
G1 X138.745 Y77.805 E20.04176
G1 X139.779 Y78.019 E20.07772
G1 X140.247 Y78.212 E20.09495
G1 X141.088 Y78.723 E20.12846
G1 X141.791 Y79.45 E20.1629
G1 X147.315 Y86.689 E20.47295
G1 X150.467 Y92.003 E20.68333
G1 X153.303 Y98.428 E20.92247
G1 X155.082 Y104.233 E21.1292
G1 X156.337 Y111.2 E21.37025
G1 X156.698 Y117.752 E21.59368
G1 X156.332 Y123.856 E21.80189
G1 X155.082 Y130.767 E22.04103
G1 X153.288 Y136.612 E22.24922
G1 X150.445 Y143.038 E22.48848
G1 X147.179 Y148.51 E22.70547
G1 X141.582 Y155.787 E23.01806
G1 X141.066 Y156.291 E23.04262
G1 X140.147 Y156.843 E23.07913
G1 X139.856 Y156.966 E23.08989
G1 X138.732 Y157.195 E23.12894
G1 X96.255 Y157.195 E24.57529
G1 X95.221 Y156.981 E24.61124
G1 X94.753 Y156.788 E24.62848
G1 X93.912 Y156.277 E24.66199
G1 X93.209 Y155.55 E24.69642
G1 X87.685 Y148.311 E25.00648
G1 X84.531 Y142.995 E25.21695
G1 X81.718 Y136.63 E25.4539
G1 X79.918 Y130.767 E25.66273
G1 X78.663 Y123.8 E25.90378
G1 X78.302 Y117.248 E26.12721
G1 X78.668 Y111.144 E26.33543
G1 X79.918 Y104.233 E26.57457
G1 X81.712 Y98.388 E26.78275
G1 X84.558 Y91.959 E27.02215
G1 X87.861 Y86.434 E27.24133
G1 X93.418 Y79.213 E27.55159
G0 F6000 X93.8 Y79.604
G1 F2100 X94.273 Y79.142 E27.5741
G1 X95.134 Y78.625 E27.6083
G1 X95.306 Y78.558 E27.61458
G1 X96.323 Y78.351 E27.64992
G1 X138.687 Y78.351 E29.09242
G1 X139.668 Y78.554 E29.12653
G1 X139.964 Y78.679 E29.13747
G1 X140.745 Y79.153 E29.16858
G1 X141.357 Y79.781 E29.19843
G1 X146.845 Y86.968 E29.50634
G1 X149.997 Y92.282 E29.71672
G1 X152.781 Y98.588 E29.95143
G1 X154.56 Y104.393 E30.15817
G1 X155.792 Y111.23 E30.39472
G1 X156.153 Y117.719 E30.61601
G1 X155.787 Y123.823 E30.82422
G1 X154.56 Y130.607 E31.05897
G1 X152.766 Y136.452 E31.26715
G1 X149.976 Y142.758 E31.50195
G1 X146.746 Y148.177 E31.71676
G1 X141.2 Y155.396 E32.02673
G1 X140.727 Y155.858 E32.04924
G1 X139.866 Y156.375 E32.08344
G1 X139.694 Y156.442 E32.08972
G1 X138.677 Y156.649 E32.12506
G1 X96.313 Y156.649 E33.56756
G1 X95.332 Y156.446 E33.60167
G1 X95.036 Y156.321 E33.61261
G1 X94.255 Y155.847 E33.64372
G1 X93.643 Y155.219 E33.67358
G1 X88.155 Y148.032 E33.98148
G1 X85.001 Y142.716 E34.19195
G1 X82.24 Y136.47 E34.42448
G1 X80.44 Y130.607 E34.63331
G1 X79.208 Y123.77 E34.86986
G1 X78.847 Y117.281 E35.09116
G1 X79.213 Y111.177 E35.29937
G1 X80.44 Y104.393 E35.53412
G1 X82.234 Y98.548 E35.7423
G1 X85.027 Y92.239 E35.97723
G1 X88.294 Y86.767 E36.19424
G1 X93.8 Y79.604 E36.50187
G0 F6000 X94.182 Y79.995
G1 F2100 X94.612 Y79.575 E36.52233
G1 X95.415 Y79.093 E36.55422
G1 X96.378 Y78.897 E36.58769
G1 X138.63 Y78.897 E38.02637
G1 X139.507 Y79.078 E38.05686
G1 X139.68 Y79.146 E38.06319
G1 X140.404 Y79.586 E38.09204
G1 X140.923 Y80.113 E38.11722
G1 X146.375 Y87.247 E38.42295
G1 X149.527 Y92.561 E38.63333
G1 X152.259 Y98.748 E38.86362
G1 X154.038 Y104.553 E39.07035
G1 X155.247 Y111.261 E39.30244
G1 X155.608 Y117.686 E39.52156
G1 X155.242 Y123.79 E39.72977
G1 X154.038 Y130.447 E39.96012
G1 X152.244 Y136.292 E40.16831
G1 X149.507 Y142.479 E40.39867
G1 X146.313 Y147.845 E40.6113
G1 X140.818 Y155.005 E40.91862
G1 X140.388 Y155.425 E40.93909
G1 X139.585 Y155.907 E40.97098
G1 X138.622 Y156.103 E41.00444
G1 X96.37 Y156.103 E42.44312
G1 X95.493 Y155.922 E42.47361
G1 X95.32 Y155.854 E42.47994
G1 X94.596 Y155.414 E42.50879
G1 X94.077 Y154.887 E42.53398
G1 X88.625 Y147.753 E42.8397
G1 X85.471 Y142.437 E43.05018
G1 X82.74 Y136.25 E43.28045
G1 X80.962 Y130.447 E43.48711
G1 X79.753 Y123.739 E43.7192
G1 X79.392 Y117.314 E43.93832
G1 X79.758 Y111.21 E44.14653
G1 X80.962 Y104.553 E44.37688
G1 X82.756 Y98.708 E44.58507
G1 X85.496 Y92.519 E44.81553
G1 X88.727 Y87.1 E45.03036
G1 X94.182 Y79.995 E45.33536
G0 F6000 X94.564 Y80.386
G1 F2100 X94.951 Y80.008 E45.35378
G1 X95.615 Y79.609 E45.38016
G1 X96.433 Y79.443 E45.40858
G1 X138.573 Y79.443 E46.84345
G1 X139.397 Y79.613 E46.8721
G1 X140.061 Y80.016 E46.89855
G1 X140.489 Y80.445 E46.91918
G1 X145.905 Y87.526 E47.22273
G1 X149.057 Y92.84 E47.43311
G1 X151.737 Y98.908 E47.65898
G1 X153.516 Y104.713 E47.86571
G1 X154.702 Y111.292 E48.09334
G1 X155.063 Y117.653 E48.31028
G1 X154.697 Y123.757 E48.5185
G1 X153.516 Y130.287 E48.74445
G1 X151.722 Y136.132 E48.95264
G1 X149.038 Y142.2 E49.17856
G1 X145.88 Y147.513 E49.38901
G1 X140.436 Y154.614 E49.69368
G1 X140.049 Y154.992 E49.7121
G1 X139.385 Y155.391 E49.73848
G1 X138.567 Y155.557 E49.7669
G1 X96.427 Y155.557 E51.20177
G1 X95.603 Y155.387 E51.23042
G1 X94.939 Y154.984 E51.25687
G1 X94.511 Y154.555 E51.2775
G1 X89.095 Y147.474 E51.58105
G1 X85.941 Y142.158 E51.79152
G1 X83.262 Y136.09 E52.01738
G1 X81.484 Y130.287 E52.22404
G1 X80.298 Y123.708 E52.45166
G1 X79.937 Y117.347 E52.66861
G1 X80.303 Y111.243 E52.87682
G1 X81.484 Y104.713 E53.10277
G1 X83.278 Y98.868 E53.31096
G1 X85.965 Y92.799 E53.53696
G1 X89.196 Y87.38 E53.75178
G1 X94.564 Y80.386 E54.05199
G0 F6000 X94.946 Y80.777
G1 F2100 X95.29 Y80.441 E54.06836
G1 X95.816 Y80.125 E54.08926
G1 X96.487 Y79.989 E54.11257
G1 X138.516 Y79.989 E55.54366
G1 X139.195 Y80.129 E55.56726
G1 X139.722 Y80.449 E55.58826
G1 X140.055 Y80.777 E55.60417
G1 X145.435 Y87.805 E55.90554
G1 X148.587 Y93.119 E56.11592
G1 X151.215 Y99.068 E56.33737
G1 X152.994 Y104.873 E56.5441
G1 X154.157 Y111.323 E56.76727
G1 X154.518 Y117.62 E56.98203
G1 X154.152 Y123.724 E57.19025
G1 X152.994 Y130.127 E57.41181
G1 X151.2 Y135.972 E57.61999
G1 X148.568 Y141.921 E57.8415
G1 X145.446 Y147.181 E58.04977
G1 X140.054 Y154.223 E58.35177
G1 X139.71 Y154.559 E58.36815
G1 X139.184 Y154.875 E58.38904
G1 X138.513 Y155.011 E58.41235
G1 X96.484 Y155.011 E59.84344
G1 X95.805 Y154.871 E59.86705
G1 X95.278 Y154.551 E59.88804
G1 X94.945 Y154.223 E59.90396
G1 X89.565 Y147.195 E60.20533
G1 X86.411 Y141.879 E60.4158
G1 X83.784 Y135.93 E60.63723
G1 X82.006 Y130.127 E60.84389
G1 X80.843 Y123.677 E61.06706
G1 X80.482 Y117.38 E61.28182
G1 X80.848 Y111.276 E61.49004
G1 X82.006 Y104.873 E61.7116
G1 X83.8 Y99.028 E61.91978
G1 X86.434 Y93.079 E62.14131
G1 X89.665 Y87.66 E62.35614
G1 X94.946 Y80.777 E62.65154
G0 F6000 X95.379 Y81.109
G1 F2100 X95.666 Y80.837 E62.66501
G1 X96.017 Y80.641 E62.67869
G1 X96.541 Y80.535 E62.6969
G1 X138.459 Y80.535 E64.12421
G1 X138.993 Y80.645 E64.14277
G1 X139.344 Y80.843 E64.1565
G1 X139.621 Y81.109 E64.16957
G1 X145.001 Y88.137 E64.47094
G1 X148.117 Y93.397 E64.67911
G1 X150.693 Y99.228 E64.89617
G1 X152.472 Y105.033 E65.10291
G1 X153.612 Y111.355 E65.32164
G1 X153.973 Y117.587 E65.5342
G1 X153.607 Y123.691 E65.74241
G1 X152.472 Y129.967 E65.95958
G1 X150.678 Y135.812 E66.16776
G1 X148.098 Y141.642 E66.38485
G1 X144.976 Y146.902 E66.59312
G1 X139.621 Y153.891 E66.89292
G1 X139.334 Y154.163 E66.90638
G1 X138.983 Y154.359 E66.92007
G1 X138.459 Y154.465 E66.93828
G1 X96.541 Y154.465 E68.36559
G1 X96.007 Y154.355 E68.38415
G1 X95.656 Y154.157 E68.39787
G1 X95.379 Y153.891 E68.41095
G1 X89.999 Y146.863 E68.71232
G1 X86.881 Y141.601 E68.92059
G1 X84.306 Y135.77 E69.13763
G1 X82.528 Y129.967 E69.34429
G1 X81.388 Y123.645 E69.56303
G1 X81.027 Y117.413 E69.77558
G1 X81.393 Y111.309 E69.9838
G1 X82.528 Y105.033 E70.20096
G1 X84.322 Y99.188 E70.40915
G1 X86.903 Y93.358 E70.62624
G1 X90.098 Y87.992 E70.83889
G1 X95.379 Y81.109 E71.13429
G1 F1500 E70.13429
G0 F6000 X96.245 Y81.773
G1 F1500 E71.13429
G1 F2100 X96.378 Y81.664 E71.14015
G1 X96.541 Y81.627 E71.14584
G1 X138.459 Y81.627 E72.57315
G1 X138.626 Y81.666 E72.57899
G1 X138.755 Y81.773 E72.5847
G1 X144.061 Y88.693 E72.88162
G1 X147.177 Y93.953 E73.08979
G1 X149.649 Y99.548 E73.29806
G1 X151.428 Y105.353 E73.5048
G1 X152.522 Y111.419 E73.71468
G1 X152.883 Y117.521 E73.92281
G1 X152.517 Y123.625 E74.13103
G1 X151.428 Y129.647 E74.3394
G1 X149.634 Y135.492 E74.54759
G1 X147.158 Y141.084 E74.75583
G1 X144.036 Y146.344 E74.9641
G1 X138.755 Y153.227 E75.25951
G1 X138.622 Y153.336 E75.26536
G1 X138.459 Y153.373 E75.27105
G1 X96.541 Y153.373 E76.69836
G1 X96.374 Y153.334 E76.7042
G1 X96.245 Y153.227 E76.70991
G1 X90.939 Y146.307 E77.00683
G1 X87.821 Y141.045 E77.21509
G1 X85.35 Y135.45 E77.42335
G1 X83.572 Y129.647 E77.63001
G1 X82.478 Y123.581 E77.83989
G1 X82.117 Y117.479 E78.04803
G1 X82.483 Y111.375 E78.25625
G1 X83.572 Y105.353 E78.46462
G1 X85.366 Y99.508 E78.67281
G1 X87.841 Y93.916 E78.88103
G1 X90.964 Y88.656 E79.08932
G1 X96.245 Y81.773 E79.38473
G0 F6000 X95.812 Y81.441
G1 F2100 X96.032 Y81.242 E79.39483
G1 X96.257 Y81.132 E79.40335
G1 X96.541 Y81.081 E79.41318
G1 X138.459 Y81.081 E80.84049
G1 X138.75 Y81.134 E80.85056
G1 X138.975 Y81.246 E80.85912
G1 X139.188 Y81.441 E80.86895
G1 X144.531 Y88.415 E81.1681
G1 X147.647 Y93.675 E81.37627
G1 X150.171 Y99.388 E81.58894
G1 X151.95 Y105.193 E81.79567
G1 X153.067 Y111.387 E82.00998
G1 X153.428 Y117.554 E82.22032
G1 X153.062 Y123.658 E82.42854
G1 X151.95 Y129.807 E82.64131
G1 X150.156 Y135.652 E82.8495
G1 X147.628 Y141.363 E83.06216
G1 X144.506 Y146.623 E83.27043
G1 X139.188 Y153.559 E83.56803
G1 X138.968 Y153.758 E83.57813
G1 X138.743 Y153.868 E83.58666
G1 X138.459 Y153.919 E83.59649
G1 X96.541 Y153.919 E85.0238
G1 X96.25 Y153.866 E85.03387
G1 X96.025 Y153.754 E85.04243
G1 X95.812 Y153.559 E85.05226
G1 X90.469 Y146.585 E85.3514
G1 X87.351 Y141.323 E85.55967
G1 X84.828 Y135.61 E85.77232
G1 X83.05 Y129.807 E85.97898
G1 X81.933 Y123.613 E86.19329
G1 X81.572 Y117.446 E86.40363
G1 X81.938 Y111.342 E86.61185
G1 X83.05 Y105.193 E86.82462
G1 X84.844 Y99.348 E87.03281
G1 X87.372 Y93.637 E87.24547
G1 X90.531 Y88.324 E87.45594
G1 X95.812 Y81.441 E87.75134
G1 F1500 E86.75134
;MESH:Case Base.obj
G0 F6000 X90.709 Y88.509
G0 X87.571 Y93.8
G0 X85.084 Y99.426
G0 X83.282 Y105.306
G0 X82.189 Y111.361
G0 X81.829 Y117.412
G0 X83.309 Y117.499
;TYPE:WALL-INNER
G1 F1500 E87.75134
G1 F2100 X83.667 Y123.474 E87.95515
G1 X84.722 Y129.334 E88.15789
G1 X86.477 Y135.053 E88.36159
G1 X88.894 Y140.52 E88.56512
G1 X91.94 Y145.66 E88.76856
G1 X96.944 Y152.181 E89.04844
G1 X138.055 Y152.181 E90.44828
G1 X143.056 Y145.66 E90.72809
G1 X146.102 Y140.52 E90.93154
G1 X148.523 Y135.053 E91.13512
G1 X150.274 Y129.334 E91.33878
G1 X151.333 Y123.474 E91.54154
G1 X151.687 Y117.499 E91.74535
G1 X151.333 Y111.518 E91.94936
G1 X150.274 Y105.662 E92.15199
G1 X148.523 Y99.943 E92.35565
G1 X146.102 Y94.476 E92.55923
G1 X143.056 Y89.336 E92.76267
G1 X138.056 Y82.819 E93.04236
G1 X96.944 Y82.819 E94.44223
G1 X91.94 Y89.336 E94.722
G1 X88.894 Y94.476 E94.92545
G1 X86.477 Y99.943 E95.12898
G1 X84.722 Y105.662 E95.33267
G1 X83.667 Y111.518 E95.53528
G1 X83.309 Y117.499 E95.7393
G0 F6000 X82.762 Y117.499
;TYPE:WALL-OUTER
G1 F1380 X83.124 Y123.539 E95.94533
G1 X84.19 Y129.463 E96.15028
G1 X85.965 Y135.244 E96.3562
G1 X88.408 Y140.77 E96.56192
G1 X91.487 Y145.966 E96.76758
G1 X96.675 Y152.727 E97.05776
G1 X138.325 Y152.727 E98.47594
G1 X143.509 Y145.966 E98.76604
G1 X146.588 Y140.77 E98.97169
G1 X149.035 Y135.244 E99.17747
G1 X150.806 Y129.463 E99.38335
G1 X151.876 Y123.539 E99.58832
G1 X152.234 Y117.499 E99.79435
G1 X151.876 Y111.453 E100.00057
G1 X150.806 Y105.533 E100.20542
G1 X149.035 Y99.752 E100.41129
G1 X146.588 Y94.226 E100.61707
G1 X143.509 Y89.03 E100.82273
G1 X138.325 Y82.273 E101.11271
G1 X96.675 Y82.273 E102.5309
G1 X91.487 Y89.03 E102.82097
G1 X88.408 Y94.226 E103.02662
G1 X85.965 Y99.752 E103.23235
G1 X84.19 Y105.533 E103.43827
G1 X83.124 Y111.453 E103.64308
G1 X82.762 Y117.499 E103.84932
G0 F6000 X82.773 Y117.698
G1 F1500 E102.84932
G0 F6000 X83.834 Y117.495
;TYPE:SKIN
G1 F1500 E103.84932
G1 F2100 X84.192 Y111.561 E104.05174
G1 X85.23 Y105.793 E104.2513
G1 X86.969 Y100.128 E104.45307
G1 X89.364 Y94.706 E104.6549
G1 X92.379 Y89.626 E104.85605
G1 X97.203 Y83.341 E105.12582
G1 X137.797 Y83.341 E106.50805
G1 X142.617 Y89.626 E106.77774
G1 X145.632 Y94.714 E106.97912
G1 X148.027 Y100.128 E107.1807
G1 X149.762 Y105.793 E107.38244
G1 X150.808 Y111.561 E107.58204
G1 X151.158 Y117.495 E107.78445
G1 X150.808 Y123.419 E107.98651
G1 X149.762 Y129.199 E108.18652
G1 X148.027 Y134.868 E108.38838
G1 X145.632 Y140.278 E108.58984
G1 X142.617 Y145.366 E108.79122
G1 X137.797 Y151.654 E109.06099
G1 X97.203 Y151.655 E110.44322
G1 X92.379 Y145.366 E110.7131
G1 X89.364 Y140.282 E110.91437
G1 X86.969 Y134.868 E111.11594
G1 X85.23 Y129.199 E111.31785
G1 X84.192 Y123.423 E111.51768
G1 X83.834 Y117.495 E111.71989
G1 F1500 E110.71989
G0 F6000 X81.831 Y117.614
G0 X82.189 Y123.639
G0 X83.282 Y129.694
G0 X85.084 Y135.574
G0 X87.571 Y141.2
G0 X90.709 Y146.491
G0 X96.216 Y153.66
G0 X98.103 Y153.665
G0 X98.103 Y151.382
G1 F1500 E111.71989
G1 F2100 X94.818 Y148.097 E111.87808
G1 X94.744 Y148.023
G1 F1500 E110.87808
G0 F6000 X92.459 Y144.966
G1 F1500 E111.87808
