;FLAVOR:Marlin
;TIME:18594
;Filament used: 17.1655m
;Layer height: 0.15
;MINX:61.881
;MINY:17.304
;MINZ:0.3
;MAXX:173.115
;MAXY:217.692
;MAXZ:11.975
;TARGET_MACHINE.NAME:ELEGOO NEPTUNE 3 Pro
;Generated with Cura_SteamEngine 5.10.0
M140 S60
M105
M190 S60
M104 S210
M105
M109 S210
;ELEGOO NEPTUNE 3 Pro
M220 S100 ;Set the feed speed to 100%
M221 S100 ;Set the flow rate to 100%
G90
G28 ;home
;M420 S1 Z10;Uncomment to enable progressive compensation height of 10mm
G92 E0 ;Reset Extruder
G1 Z0.45 F300
G1 X1.5 Y20 F5000.0 ;Move to start position
G1 Y120.0 F600.0 E15 ;Draw the first line
G1 X0.5 F1000.0 ;Move to side a little
G1 Y20 F600 E30 ;Draw the second line
G92 E0 ;Reset Extruder
M82 ;absolute extrusion mode
G92 E0
G92 E0
G1 F1500 E-1
;LAYER_COUNT:73
;LAYER:-6
M107
M204 S1000
G0 F9000 X81.963 Y45.578 Z0.3
;TYPE:SUPPORT-INTERFACE
G1 F1500 E0
G1 F720 X82.359 Y44.872 E0.08077
G1 X85.253 Y39.995 E0.64663
G1 X85.779 Y39.178 E0.74358
G1 X86.229 Y38.555 E0.82026
G1 X90.489 Y33.002 E1.51861
G1 X91.092 Y32.274 E1.61293
G1 X91.887 Y31.436 E1.72819
G1 X92.76 Y30.657 E1.84493
G1 X93.62 Y29.999 E1.95298
G1 X94.509 Y29.414 E2.05917
G1 X95.27 Y28.983 E2.14643
G1 X96.563 Y28.365 E2.28943
G1 X96.586 Y28.381 E2.29223
G1 X97.277 Y28.11 E2.36629
G1 X98.251 Y27.807 E2.46807
G1 X99.468 Y27.538 E2.59243
G1 X99.873 Y27.48 E2.63325
G1 X100.542 Y27.335 E2.70156
G1 X101.186 Y27.112 E2.76956
G1 X101.81 Y26.803 E2.83904
G1 X102.388 Y26.415 E2.9085
G1 X102.888 Y25.979 E2.97469
G1 X103.374 Y25.423 E3.04838
G1 X103.785 Y24.811 E3.12194
G1 X104.311 Y23.932 E3.22415
G1 X105.033 Y22.922 E3.34803
G1 X105.714 Y22.116 E3.45331
G1 X106.328 Y21.475 E3.54188
G1 X107.135 Y20.742 E3.65066
G1 X107.979 Y20.081 E3.75763
G1 X108.855 Y19.497 E3.86268
G1 X110.128 Y18.77 E4.00896
G1 X110.154 Y18.787 E4.01205
G1 X110.75 Y18.508 E4.07772
G1 X111.791 Y18.099 E4.18932
G1 X112.936 Y17.76 E4.30847
G1 X113.957 Y17.538 E4.41273
G1 X114.849 Y17.402 E4.50276
G1 X115.913 Y17.324 E4.60921
G1 X116.606 Y17.304 E4.67839
G1 X126.548 Y17.304 E5.6704
G1 X127.539 Y17.344 E5.76937
G1 X128.587 Y17.451 E5.87448
G1 X128.597 Y17.443 E5.87576
G1 X129.64 Y17.639 E5.98165
G1 X130.756 Y17.928 E6.09668
G1 X131.625 Y18.227 E6.18838
G1 X131.639 Y18.218 E6.19004
G1 X132.74 Y18.686 E6.30941
G1 X133.743 Y19.209 E6.42228
G1 X134.594 Y19.726 E6.52163
G1 X135.521 Y20.396 E6.63576
G1 X136.336 Y21.082 E6.74205
G1 X136.968 Y21.691 E6.82963
G1 X137.702 Y22.499 E6.93855
G1 X138.363 Y23.343 E7.04552
G1 X138.964 Y24.244 E7.15358
G1 X139.269 Y24.773 E7.21451
G1 X139.642 Y25.349 E7.28298
G1 X140.059 Y25.846 E7.34772
G1 X140.566 Y26.317 E7.41677
G1 X141.138 Y26.719 E7.48653
G1 X141.738 Y27.043 E7.55457
G1 X142.339 Y27.274 E7.61881
G1 X143.162 Y27.466 E7.70314
G1 X144.122 Y27.64 E7.80049
G1 X145.236 Y27.928 E7.9153
G1 X146.105 Y28.227 E8.00699
G1 X146.119 Y28.218 E8.00865
G1 X147.22 Y28.686 E8.12803
G1 X148.223 Y29.209 E8.24089
G1 X149.074 Y29.726 E8.34025
G1 X150.001 Y30.396 E8.45438
G1 X150.816 Y31.082 E8.56067
G1 X151.448 Y31.691 E8.64824
G1 X152.187 Y32.505 E8.75794
G1 X152.641 Y33.068 E8.83011
G1 X156.897 Y38.622 E9.52829
G1 X157.522 Y39.506 E9.63632
G1 X157.85 Y40.029 E9.69791
G1 X160.756 Y44.931 E10.26653
G1 X161.239 Y45.811 E10.36669
G1 X161.564 Y46.491 E10.44189
G1 X163.891 Y51.76 E11.01662
G1 X164.326 Y52.85 E11.13373
G1 X166.143 Y58.767 E11.75134
G1 X166.418 Y59.801 E11.8581
G1 X166.563 Y60.493 E11.92864
G1 X167.577 Y66.116 E12.49876
G1 X167.744 Y67.288 E12.61688
G1 X168.12 Y73.541 E13.24194
G1 X168.143 Y74.522 E13.33985
G1 X168.116 Y75.345 E13.42201
G1 X167.797 Y80.815 E13.96874
G1 X167.663 Y82.121 E14.09973
G1 X167.573 Y82.71 E14.15919
G1 X166.567 Y88.297 E14.72563
G1 X166.347 Y89.292 E14.82731
G1 X166.163 Y89.972 E14.8976
G1 X164.427 Y95.611 E15.48632
G1 X164.098 Y96.552 E15.58578
G1 X163.828 Y97.193 E15.65519
G1 X161.572 Y102.292 E16.21154
G1 X161.125 Y103.223 E16.31459
G1 X160.749 Y103.892 E16.39116
G1 X157.843 Y108.794 E16.95977
G1 X157.305 Y109.634 E17.05931
G1 X156.992 Y110.064 E17.11237
G1 X156.583 Y110.711 E17.18875
G1 X156.585 Y110.734 E17.19105
G1 X156.35 Y111.227 E17.24555
G1 X156.141 Y111.854 E17.31149
G1 X156.006 Y112.558 E17.38302
G1 X155.964 Y113.241 E17.4513
G1 X156.009 Y113.924 E17.5196
G1 X156.133 Y114.585 E17.5867
G1 X156.356 Y115.254 E17.65707
G1 X156.626 Y115.828 E17.72036
G1 X157.048 Y116.482 E17.79802
G1 X160.313 Y120.737 E18.33318
G1 X160.954 Y121.65 E18.44449
G1 X161.274 Y122.161 E18.50465
G1 X164.756 Y128.035 E19.186
G1 X165.211 Y128.867 E19.28062
G1 X165.532 Y129.539 E19.35493
G1 X168.283 Y135.771 E20.03465
G1 X168.679 Y136.765 E20.14141
G1 X168.894 Y137.421 E20.21029
G1 X170.839 Y143.76 E20.87191
G1 X171.189 Y145.049 E21.00518
G1 X172.485 Y152.225 E21.73279
G1 X172.638 Y153.281 E21.83926
G1 X172.692 Y153.956 E21.90682
G1 X173.092 Y160.68 E22.57893
G1 X173.115 Y161.852 E22.6959
G1 X173.092 Y162.484 E22.759
G1 X172.705 Y169.068 E23.41709
G1 X172.586 Y170.282 E23.5388
G1 X172.481 Y170.974 E23.60864
G1 X171.267 Y177.697 E24.29031
G1 X171.071 Y178.588 E24.38134
G1 X170.923 Y179.137 E24.43808
G1 X168.895 Y185.764 E25.12959
G1 X168.506 Y186.888 E25.24827
G1 X168.252 Y187.489 E25.31338
G1 X165.528 Y193.644 E25.98498
G1 X165.069 Y194.598 E26.09062
G1 X164.761 Y195.143 E26.15308
G1 X161.267 Y201.037 E26.83676
G1 X160.733 Y201.862 E26.93482
G1 X160.267 Y202.509 E27.01437
G1 X152.978 Y212.007 E28.209
G1 X152.329 Y212.797 E28.31101
G1 X151.535 Y213.615 E28.42476
G1 X150.704 Y214.355 E28.53579
G1 X149.888 Y214.981 E28.63841
G1 X148.979 Y215.578 E28.74692
G1 X148.187 Y216.024 E28.83762
G1 X147.26 Y216.468 E28.94018
G1 X146.254 Y216.862 E29.04798
G1 X145.24 Y217.185 E29.15417
G1 X144.003 Y217.458 E29.28057
G1 X143.158 Y217.582 E29.36578
G1 X141.987 Y217.68 E29.48303
G1 X141.36 Y217.692 E29.54561
G1 X93.572 Y217.692 E34.31391
G1 X92.577 Y217.656 E34.41326
G1 X91.45 Y217.535 E34.52636
G1 X90.48 Y217.357 E34.62476
G1 X89.276 Y217.04 E34.74899
G1 X88.494 Y216.773 E34.83144
G1 X88.484 Y216.78 E34.83266
G1 X87.383 Y216.313 E34.95199
G1 X86.504 Y215.858 E35.05075
G1 X85.627 Y215.332 E35.15279
G1 X84.677 Y214.662 E35.26879
G1 X83.784 Y213.914 E35.38502
G1 X83.116 Y213.269 E35.47767
G1 X82.393 Y212.472 E35.58505
G1 X81.955 Y211.925 E35.65497
G1 X74.667 Y202.423 E36.84985
G1 X74.03 Y201.514 E36.9606
G1 X73.758 Y201.083 E37.01145
G1 X70.236 Y195.138 E37.70093
G1 X69.757 Y194.262 E37.80055
G1 X69.412 Y193.533 E37.88103
G1 X66.745 Y187.501 E38.53911
G1 X66.344 Y186.49 E38.64763
G1 X66.109 Y185.789 E38.7214
G1 X64.137 Y179.362 E39.3922
G1 X63.785 Y178.022 E39.53044
G1 X62.511 Y170.948 E40.24765
G1 X62.358 Y169.875 E40.35579
G1 X62.308 Y169.244 E40.41895
G1 X61.904 Y162.435 E41.09955
G1 X61.881 Y161.332 E41.20963
G1 X61.904 Y160.724 E41.27034
G1 X62.296 Y154.108 E41.93165
G1 X62.285 Y154.097 E41.9332
G1 X62.401 Y152.959 E42.04734
G1 X62.515 Y152.214 E42.12254
G1 X63.737 Y145.463 E42.8071
G1 X63.933 Y144.572 E42.89813
G1 X64.141 Y143.812 E42.97676
G1 X66.133 Y137.32 E43.65434
G1 X66.431 Y136.451 E43.746
G1 X66.748 Y135.695 E43.8278
G1 X69.468 Y129.54 E44.49925
G1 X69.927 Y128.59 E44.60452
G1 X70.291 Y127.945 E44.67842
G1 X73.733 Y122.147 E45.35121
G1 X74.263 Y121.322 E45.44905
G1 X74.729 Y120.68 E45.52821
G1 X81.942 Y111.273 E46.71101
G1 X82.293 Y110.847 E46.76609
G1 X82.705 Y110.275 E46.83643
G1 X83.027 Y109.686 E46.90341
G1 X83.266 Y109.077 E46.96869
G1 X83.439 Y108.405 E47.03792
G1 X83.524 Y107.719 E47.1069
G1 X83.52 Y107.073 E47.17136
G1 X83.427 Y106.328 E47.24627
G1 X83.271 Y105.734 E47.30755
G1 X82.956 Y104.948 E47.39204
G1 X82.292 Y103.821 E47.52256
G1 X81.829 Y102.978 E47.61853
G1 X81.516 Y102.314 E47.69177
G1 X79.229 Y97.136 E48.25659
G1 X78.84 Y96.169 E48.36059
G1 X78.597 Y95.442 E48.43707
G1 X76.953 Y90.085 E48.9962
G1 X76.646 Y88.936 E49.11487
G1 X76.521 Y88.317 E49.17788
G1 X75.496 Y82.632 E49.75428
G1 X75.338 Y81.515 E49.86684
G1 X74.964 Y75.327 E50.48541
G1 X74.941 Y74.286 E50.58931
G1 X74.964 Y73.458 E50.67196
G1 X75.287 Y67.98 E51.21951
G1 X75.417 Y66.692 E51.34868
G1 X75.519 Y66.051 E51.41344
G1 X76.525 Y60.475 E51.9788
G1 X76.733 Y59.528 E52.07554
G1 X76.921 Y58.836 E52.14709
G1 X78.617 Y53.308 E52.72406
G1 X78.855 Y52.614 E52.79726
G1 X78.843 Y52.598 E52.79926
G1 X79.252 Y51.614 E52.90558
G1 X81.504 Y46.529 E53.4605
G1 X81.963 Y45.578 E53.56587
G0 F9000 X82.203 Y45.999
G1 F720 X164.367 Y128.163 E65.16009
G0 F9000 X166.37 Y132.429
G1 F720 X81.489 Y47.548 E77.13772
G0 F9000 X80.795 Y49.116
G1 F720 X168.12 Y136.441 E89.46022
G0 F9000 X169.202 Y139.787
G1 F720 X80.1 Y50.685 E102.03347
G0 F9000 X79.415 Y52.262
G1 F720 X170.204 Y143.051 E114.84478
G0 F9000 X170.969 Y146.078
G1 F720 X78.839 Y53.949 E127.84525
G0 F9000 X78.307 Y55.68
G1 F720 X171.467 Y148.84 E140.99113
G0 F9000 X171.966 Y151.602
G1 F720 X77.776 Y57.411 E154.28243
G0 F9000 X77.25 Y59.148
G1 F720 X172.306 Y154.204 E167.69586
G0 F9000 X172.449 Y156.61
G1 F720 X76.836 Y60.997 E181.18789
G0 F9000 X76.491 Y62.914
G1 F720 X172.592 Y159.016 E194.74885
G0 F9000 X172.706 Y161.392
G1 F720 X76.145 Y64.831 E208.37465
G0 F9000 X75.812 Y66.761
G1 F720 X172.627 Y163.576 E222.03629
G0 F9000 X172.502 Y165.714
G1 F720 X75.636 Y68.848 E235.70513
G0 F9000 X75.511 Y70.985
G1 F720 X172.376 Y167.851 E249.3739
G0 F9000 X172.217 Y169.954
G1 F720 X75.385 Y73.122 E263.03794
G0 F9000 X75.367 Y75.367
G1 F720 X171.906 Y171.906 E276.66063
G0 F9000 X171.56 Y173.823
G1 F720 X75.513 Y77.775 E290.21397
G0 F9000 X75.658 Y80.183
G1 F720 X171.215 Y175.74 E303.6981
G0 F9000 X170.867 Y177.656
G1 F720 X75.915 Y82.703 E317.09692
G0 F9000 X76.413 Y85.464
G1 F720 X170.407 Y179.458 E330.36049
G0 F9000 X169.877 Y181.191
G1 F720 X76.911 Y88.224 E343.47907
G0 F9000 X77.753 Y91.329
G1 F720 X169.347 Y182.924 E356.40404
G0 F9000 X168.817 Y184.656
G1 F720 X78.754 Y94.593 E369.1129
G0 F9000 X80.167 Y98.269
G1 F720 X168.264 Y186.366 E381.54434
G0 F9000 X167.603 Y187.968
G1 F720 X81.966 Y102.33 E393.62872
G0 F9000 X83.849 Y106.476
G1 F720 X166.909 Y189.536 E405.34938
G0 F9000 X166.215 Y191.105
G1 F720 X83.782 Y108.672 E416.98157
G0 F9000 X83.146 Y110.299
G1 F720 X165.52 Y192.673 E428.60543
G0 F9000 X164.806 Y194.222
G1 F720 X82.19 Y111.605 E440.26351
G0 F9000 X81.208 Y112.887
G1 F720 X163.987 Y195.665 E451.94445
G0 F9000 X163.144 Y197.086
G1 F720 X80.226 Y114.167 E463.64515
G0 F9000 X79.244 Y115.448
G1 F720 X162.302 Y198.506 E475.36553
G0 F9000 X161.461 Y199.927
G1 F720 X78.262 Y116.728 E487.1058
G0 F9000 X77.28 Y118.01
G1 F720 X160.601 Y201.33 E498.86323
G0 F9000 X159.656 Y202.648
G1 F720 X76.298 Y119.29 E510.62594
G0 F9000 X75.316 Y120.571
G1 F720 X158.673 Y203.928 E522.38851
G0 F9000 X157.691 Y205.209
G1 F720 X74.373 Y121.89 E534.14565
G0 F9000 X73.515 Y123.295
G1 F720 X156.709 Y206.489 E545.88523
G0 F9000 X155.726 Y207.769
G1 F720 X72.672 Y124.715 E557.60504
G0 F9000 X71.829 Y126.135
G1 F720 X154.744 Y209.05 E569.30525
G0 F9000 X153.762 Y210.33
G1 F720 X70.986 Y127.555 E580.98576
G0 F9000 X70.172 Y129.003
G1 F720 X152.779 Y211.61 E592.6425
G0 F9000 X151.739 Y212.833
G1 F720 X69.458 Y130.552 E604.25324
G0 F9000 X68.764 Y132.121
G1 F720 X150.576 Y213.933 E615.7978
G0 F9000 X149.281 Y214.9
G1 F720 X68.07 Y133.69 E627.25748
G0 F9000 X67.377 Y135.259
G1 F720 X147.856 Y215.738 E638.61393
G0 F9000 X146.278 Y216.423
G1 F720 X66.713 Y136.858 E649.84141
G0 F9000 X66.166 Y138.574
G1 F720 X144.525 Y216.933 E660.89871
G0 F9000 X142.56 Y217.23
G1 F720 X65.635 Y140.306 E671.75359
G0 F9000 X65.103 Y142.037
G1 F720 X140.359 Y217.292 E682.37296
G0 F9000 X138.096 Y217.292
G1 F720 X64.572 Y143.768 E692.74799
G0 F9000 X64.122 Y145.581
G1 F720 X135.833 Y217.292 E702.86718
G0 F9000 X133.57 Y217.292
G1 F720 X63.775 Y147.496 E712.71608
G0 F9000 X63.428 Y149.412
G1 F720 X131.308 Y217.292 E722.29468
G0 F9000 X129.045 Y217.292
G1 F720 X63.082 Y151.329 E731.60278
G0 F9000 X62.77 Y153.28
G1 F720 X126.782 Y217.292 E740.63556
G0 F9000 X124.519 Y217.292
G1 F720 X62.62 Y155.392 E749.37025
G0 F9000 X62.493 Y157.529
G1 F720 X122.257 Y217.292 E757.80352
G0 F9000 X119.994 Y217.292
G1 F720 X62.368 Y159.665 E765.93525
G0 F9000 X62.291 Y161.852
G1 F720 X117.731 Y217.292 E773.75843
G0 F9000 X115.468 Y217.292
G1 F720 X62.411 Y164.235 E781.24534
G0 F9000 X62.554 Y166.64
G1 F720 X113.206 Y217.292 E788.39289
G0 F9000 X110.943 Y217.292
G1 F720 X62.696 Y169.045 E795.20106
G0 F9000 X63.044 Y171.656
G1 F720 X108.68 Y217.292 E801.64079
G0 F9000 X106.417 Y217.292
G1 F720 X63.541 Y174.416 E807.69106
G0 F9000 X64.038 Y177.176
G1 F720 X104.155 Y217.292 E813.35193
G0 F9000 X101.892 Y217.292
G1 F720 X64.818 Y180.218 E818.58347
G0 F9000 X65.82 Y183.482
G1 F720 X99.629 Y217.292 E823.35436
G0 F9000 X97.366 Y217.292
G1 F720 X66.912 Y186.837 E827.65182
G0 F9000 X68.664 Y190.852
G1 F720 X95.104 Y217.292 E831.38279
G0 F9000 X92.813 Y217.264
G1 F720 X70.721 Y195.172 E834.50021
G0 F9000 X74.009 Y200.722
G1 F720 X90.141 Y216.854 E836.77661
G0 F9000 X86.282 Y215.258
G1 F720 X80.851 Y209.827 E837.54298
G1 F1500 E836.54298
G0 F9000 X161.073 Y122.606
G1 F1500 E837.54298
G1 F720 X83.015 Y44.548 E848.55781
G0 F9000 X83.858 Y43.129
G1 F720 X155.911 Y115.181 E858.72519
G0 F9000 X155.6 Y112.608
G1 F720 X84.701 Y41.709 E868.72981
G0 F9000 X85.543 Y40.288
G1 F720 X156.095 Y110.84 E878.68546
G0 F9000 X156.954 Y109.437
G1 F720 X86.45 Y38.933 E888.63433
G0 F9000 X87.429 Y37.648
G1 F720 X157.823 Y108.043 E898.56776
G0 F9000 X158.666 Y106.623
G1 F720 X88.411 Y36.368 E908.4815
G0 F9000 X89.393 Y35.087
G1 F720 X159.508 Y105.202 E918.37548
G0 F9000 X160.35 Y103.781
G1 F720 X90.375 Y33.807 E928.24964
G0 F9000 X91.382 Y32.55
G1 F720 X161.127 Y102.296 E938.09148
G0 F9000 X161.826 Y100.732
G1 F720 X92.51 Y31.416 E947.87272
G0 F9000 X93.756 Y30.399
G1 F720 X162.519 Y99.163 E957.57599
G0 F9000 X163.214 Y97.594
G1 F720 X95.138 Y29.518 E967.18225
G0 F9000 X96.649 Y28.767
G1 F720 X163.872 Y95.99 E976.66814
G0 F9000 X164.421 Y94.276
G1 F720 X98.343 Y28.198 E985.99246
G0 F9000 X100.222 Y27.814
G1 F720 X164.953 Y92.545 E995.12671
G0 F9000 X165.486 Y90.815
G1 F720 X101.882 Y27.212 E1004.10185
G0 F9000 X103.182 Y26.249
G1 F720 X165.99 Y89.057 E1012.96473
G0 F9000 X166.365 Y87.169
G1 F720 X104.159 Y24.963 E1021.74267
G0 F9000 X105.047 Y23.588
G1 F720 X166.71 Y85.251 E1030.44399
G0 F9000 X167.055 Y83.333
G1 F720 X106.057 Y22.335 E1039.05146
G0 F9000 X107.204 Y21.22
G1 F720 X167.34 Y81.355 E1047.53723
G0 F9000 X167.488 Y79.241
G1 F720 X108.477 Y20.23 E1055.86432
G0 F9000 X109.882 Y19.373
G1 F720 X167.613 Y77.103 E1064.01072
G0 F9000 X167.729 Y74.956
G1 F720 X111.44 Y18.668 E1071.95363
G0 F9000 X113.157 Y18.122
G1 F720 X167.665 Y72.63 E1079.6453
G0 F9000 X167.52 Y70.222
G1 F720 X115.084 Y17.787 E1087.04452
G0 F9000 X117.264 Y17.704
G1 F720 X167.376 Y67.815 E1094.11579
G0 F9000 X167.002 Y65.178
G1 F720 X119.527 Y17.704 E1100.81496
G0 F9000 X121.79 Y17.704
G1 F720 X166.504 Y62.418 E1107.12459
G0 F9000 X165.952 Y59.603
G1 F720 X124.053 Y17.704 E1113.03699
G0 F9000 X126.315 Y17.704
G1 F720 X164.991 Y56.38 E1118.49459
G0 F9000 X163.988 Y53.114
G1 F720 X128.754 Y17.879 E1123.46656
G0 F9000 X131.902 Y18.764
M104 S200
G1 F720 X162.311 Y49.174 E1127.75767
G0 F9000 X160.234 Y44.834
G1 F720 X143.298 Y27.898 E1130.14752
G0 F9000 X146.461 Y28.798
G1 F720 X156.705 Y39.042 E1131.59306
G1 F1500 E1130.59306
G0 F600 X156.705 Y39.042 Z0.6
G0 F9000 X110.129 Y19.286
;TIME_ELAPSED:959.711288
;LAYER:-5
;TYPE:SUPPORT
G1 F1500 E1131.59306
G1 F1080 X109.103 Y19.861 E1131.71628
G1 X108.241 Y20.44 E1131.82507
G1 X107.407 Y21.091 E1131.93592
G1 X106.655 Y21.774 E1132.04235
G1 X105.959 Y22.504 E1132.14802
G1 X105.38 Y23.197 E1132.24264
G1 X104.722 Y24.11 E1132.36054
G1 X104.175 Y25.018 E1132.4716
G1 X103.705 Y25.724 E1132.56046
G1 X110.156 Y19.273 E1133.51628
G1 X110.942 Y18.903 E1133.6073
G1 X112.046 Y18.482 E1133.73109
G1 X112.578 Y18.322 E1133.78929
G1 X80.095 Y50.805 E1138.60218
G1 X79.654 Y51.8 E1138.71621
G1 X79.342 Y52.562 E1138.80247
G1 X79.095 Y53.276 E1138.88163
G1 X114.459 Y17.912 E1144.12138
G1 X114.827 Y17.856 E1144.16038
G1 X115.646 Y17.903 E1144.24633
G1 X115.646 Y17.761 E1144.26121
G1 X116.087 Y17.754 E1144.30742
G1 X78.432 Y55.409 E1149.88662
