;FLAVOR:Marlin
;TIME:6655
;Filament used: 6.49387m
;Layer height: 0.15
;MINX:86.38
;MINY:65.977
;MINZ:0.3
;MAXX:166.66
;MAXY:146.256
;MAXZ:14.975
;TARGET_MACHINE.NAME:ELEGOO NEPTUNE 3 Pro
;Generated with Cura_SteamEngine 5.10.0
M140 S60
M105
M190 S60
M104 S210
M105
M109 S210
;ELEGOO NEPTUNE 3 Pro
M220 S100 ;Set the feed speed to 100%
M221 S100 ;Set the flow rate to 100%
G90
G28 ;home
;M420 S1 Z10;Uncomment to enable progressive compensation height of 10mm
G92 E0 ;Reset Extruder
G1 Z0.45 F300
G1 X1.5 Y20 F5000.0 ;Move to start position
G1 Y120.0 F600.0 E15 ;Draw the first line
G1 X0.5 F1000.0 ;Move to side a little
G1 Y20 F600 E30 ;Draw the second line
G92 E0 ;Reset Extruder
M82 ;absolute extrusion mode
G92 E0
G92 E0
G1 F1500 E-1
;LAYER_COUNT:93
;LAYER:-6
M107
M204 S1000
G0 F9000 X94.808 Y81.07 Z0.3
;TYPE:SUPPORT-INTERFACE
G1 F1500 E0
G1 F720 X101.502 Y74.376 E0.9446
G1 X102.142 Y73.846 E1.02751
G1 X110.331 Y69.104 E1.97172
G1 X111.025 Y68.754 E2.04928
G1 X111.727 Y68.512 E2.12337
G1 X111.743 Y68.524 E2.12536
G1 X120.589 Y66.149 E3.03928
G1 X121.141 Y66.022 E3.0958
G1 X121.948 Y65.977 E3.17644
G1 X130.364 Y65.981 E4.0162
G1 X130.881 Y66.01 E4.06786
G1 X131.624 Y66.173 E4.14376
G1 X132.147 Y66.364 E4.19932
G1 X132.685 Y66.642 E4.25975
G1 X133.142 Y66.944 E4.3144
G1 X162.273 Y88.483 E7.92935
G1 X162.672 Y88.815 E7.98114
G1 X163.059 Y89.213 E8.03653
G1 X163.413 Y89.681 E8.09509
G1 X163.768 Y90.302 E8.16646
G1 X164.072 Y91.131 E8.25456
G1 X164.065 Y91.14 E8.2557
G1 X166.483 Y100.161 E9.1876
G1 X166.614 Y100.733 E9.24615
G1 X166.66 Y101.532 E9.326
G1 X166.66 Y110.717 E10.24249
G1 X166.626 Y111.338 E10.30454
G1 X166.482 Y112.073 E10.37928
G1 X163.971 Y121.419 E11.3449
G1 X163.88 Y121.469 E11.35526
G1 X163.828 Y121.588 E11.36821
G1 X163.814 Y121.804 E11.38981
G1 X158.902 Y130.299 E12.36895
G1 X158.454 Y130.935 E12.44657
G1 X151.538 Y137.856 E13.42284
G1 X150.898 Y138.386 E13.50576
G1 X142.622 Y143.171 E14.45963
G1 X142.139 Y143.412 E14.51349
G1 X141.485 Y143.658 E14.58321
G1 X132.466 Y146.079 E15.51499
G1 X131.903 Y146.21 E15.57267
G1 X131.092 Y146.256 E15.65372
G1 X122.673 Y146.252 E16.49377
G1 X122.149 Y146.218 E16.54617
G1 X121.729 Y146.142 E16.58875
G1 X121.166 Y145.975 E16.64735
G1 X120.443 Y145.66 E16.72604
G1 X119.833 Y145.242 E16.79983
G1 X90.484 Y123.533 E20.44235
G1 X89.991 Y123.029 E20.5127
G1 X89.629 Y122.556 E20.57213
G1 X89.277 Y121.951 E20.64197
G1 X88.991 Y121.141 E20.72768
G1 X86.524 Y111.926 E21.67954
G1 X86.415 Y111.282 E21.74471
G1 X86.38 Y110.7 E21.80289
G1 X86.38 Y101.516 E22.71927
G1 X86.418 Y100.848 E22.78603
G1 X86.558 Y100.16 E22.85609
G1 X89.069 Y90.811 E23.822
G1 X89.16 Y90.763 E23.83226
G1 X89.212 Y90.644 E23.84522
G1 X89.227 Y90.426 E23.86702
G1 X94.227 Y81.77 E24.86446
G1 X94.808 Y81.07 E24.95523
G0 F9000 X95.019 Y81.442
G1 F720 X151.196 Y137.619 E32.88241
G0 F9000 X152.333 Y136.494
G1 F720 X96.142 Y80.303 E40.81157
G0 F9000 X97.273 Y79.171
G1 F720 X153.465 Y135.363 E48.74087
G0 F9000 X154.595 Y134.231
G1 F720 X98.405 Y78.04 E56.66995
G0 F9000 X99.536 Y76.908
G1 F720 X155.727 Y133.099 E64.59911
G0 F9000 X156.857 Y131.967
G1 F720 X100.667 Y75.777 E72.52813
G0 F9000 X101.801 Y74.649
G1 F720 X157.989 Y130.836 E80.45679
G0 F9000 X158.907 Y129.492
G1 F720 X103.144 Y73.729 E88.32555
G0 F9000 X104.578 Y72.899
G1 F720 X159.736 Y128.058 E96.10901
G0 F9000 X160.566 Y126.624
G1 F720 X106.01 Y72.069 E103.80738
G0 F9000 X107.443 Y71.24
G1 F720 X161.394 Y125.19 E111.42038
G0 F9000 X162.224 Y123.757
G1 F720 X108.877 Y70.41 E118.94822
G0 F9000 X110.309 Y69.58
G1 F720 X163.052 Y122.323 E126.39083
G0 F9000 X163.738 Y120.746
G1 F720 X111.891 Y68.899 E133.707
G0 F9000 X113.675 Y68.42
G1 F720 X164.217 Y118.962 E140.83902
G0 F9000 X164.696 Y117.179
G1 F720 X115.459 Y67.942 E147.78689
G0 F9000 X117.243 Y67.462
G1 F720 X165.176 Y115.396 E154.55083
G0 F9000 X165.655 Y113.612
G1 F720 X119.027 Y66.984 E161.13054
G0 F9000 X120.814 Y66.508
G1 F720 X166.125 Y111.819 E167.52441
G0 F9000 X166.261 Y109.692
G1 F720 X122.947 Y66.378 E173.63649
G0 F9000 X125.21 Y66.379
G1 F720 X166.261 Y107.429 E179.42916
G0 F9000 X166.261 Y105.167
G1 F720 X127.474 Y66.38 E184.90242
G0 F9000 X129.737 Y66.38
G1 F720 X166.261 Y102.904 E190.05635
G0 F9000 X166.16 Y100.541
G1 F720 X132.851 Y67.231 E194.75668
G1 F1500 E193.75668
G0 F9000 X141.514 Y73.632
G1 F1500 E194.75668
G1 F720 X165.346 Y97.464 E198.11963
G0 F9000 X164.518 Y94.373
G1 F720 X150.197 Y80.052 E200.14048
G1 F1500 E199.14048
G0 F9000 X158.878 Y86.471
G1 F1500 E200.14048
G1 F720 X163.689 Y91.281 E200.8193
G1 F1500 E199.8193
G0 F9000 X149.846 Y138.532
G1 F1500 E200.8193
G1 F720 X94.101 Y82.787 E208.68552
G0 F9000 X93.272 Y84.221
G1 F720 X148.412 Y139.361 E216.46637
G0 F9000 X146.979 Y140.19
G1 F720 X92.444 Y85.656 E224.16177
G0 F9000 X91.616 Y87.091
G1 F720 X145.544 Y141.019 E231.7716
G0 F9000 X144.11 Y141.848
G1 F720 X90.788 Y88.526 E239.29591
G0 F9000 X89.96 Y89.96
G1 F720 X142.677 Y142.677 E246.73485
G0 F9000 X141.088 Y143.35
G1 F720 X89.286 Y91.548 E254.04467
G0 F9000 X88.806 Y93.332
G1 F720 X139.304 Y143.829 E261.17041
G0 F9000 X137.52 Y144.308
G1 F720 X88.328 Y95.116 E268.11193
G0 F9000 X87.848 Y96.899
G1 F720 X135.736 Y144.786 E274.86938
G0 F9000 X133.952 Y145.266
G1 F720 X87.369 Y98.682 E281.44281
G0 F9000 X86.901 Y100.478
G1 F720 X132.163 Y145.739 E287.8297
G0 F9000 X130.016 Y145.856
G1 F720 X86.78 Y102.619 E293.93084
G0 F9000 X86.78 Y104.882
G1 F720 X127.752 Y145.854 E299.71243
G0 F9000 X125.489 Y145.854
G1 F720 X86.78 Y107.144 E305.17476
G0 F9000 X86.78 Y109.407
G1 F720 X123.225 Y145.852 E310.31754
G0 F9000 X119.913 Y144.803
G1 F720 X86.908 Y111.798 E314.9749
G0 F9000 X87.729 Y114.882
M104 S200
G1 F720 X111.22 Y138.373 E318.28973
G1 F1500 E317.28973
G0 F9000 X102.527 Y131.943
G1 F1500 E318.28973
G1 F720 X88.557 Y117.972 E320.26112
G0 F9000 X89.389 Y121.067
G1 F720 X93.834 Y125.512 E320.88836
G1 F1500 E319.88836
G0 F600 X93.834 Y125.512 Z0.6
G0 F9000 X95.209 Y81.285
;TIME_ELAPSED:277.143243
;LAYER:-5
;TYPE:SUPPORT
G1 F1500 E320.88836
G1 F1080 X101.92 Y74.574 E321.8827
G1 X102.585 Y74.1 E321.96826
G1 X105.62 Y72.345 E322.33557
G1 X92.745 Y85.22 E324.24322
G1 X90.735 Y88.7 E324.66426
G1 X109.107 Y70.328 E327.38637
G1 X110.63 Y69.448 E327.57066
G1 X111.199 Y69.16 E327.63747
G1 X112.018 Y68.888 E327.72789
G1 X89.317 Y91.589 E331.09141
G1 X88.777 Y93.6 E331.30957
G1 X114.009 Y68.368 E335.0481
G1 X116.016 Y67.831 E335.26577
G1 X88.238 Y95.609 E339.38153
G1 X87.699 Y97.62 E339.59966
G1 X118.024 Y67.295 E344.0928
G1 X120.031 Y66.758 E344.31047
G1 X87.16 Y99.629 E349.18085
G1 X86.896 Y100.609 E349.28718
G1 X86.831 Y101.43 E349.37347
G1 X121.838 Y66.422 E354.5604
G1 X123.315 Y66.416 E354.71515
G1 X86.821 Y102.909 E360.12226
G1 X86.821 Y104.38 E360.27637
G1 X124.785 Y66.416 E365.90136
G1 X126.255 Y66.417 E366.05537
G1 X86.821 Y105.851 E371.89816
G1 X86.821 Y107.322 E372.05228
G1 X127.725 Y66.419 E378.1128
G1 X129.195 Y66.419 E378.26681
G1 X86.821 Y108.793 E384.54521
G1 X86.821 Y110.263 E384.69922
G1 X130.651 Y66.433 E391.19335
G1 X131.228 Y66.525 E391.25457
G1 X131.848 Y66.708 E391.32229
G1 X86.926 Y111.63 E397.97822
G1 X86.981 Y111.941 E398.01131
G1 X87.215 Y112.811 E398.1057
G1 X132.79 Y67.237 E404.85831
G1 X133.64 Y67.858 E404.9686
G1 X87.527 Y113.97 E411.80092
G1 X87.838 Y115.13 E411.92674
G1 X134.485 Y68.483 E418.83826
G1 X135.33 Y69.108 E418.94837
G1 X88.149 Y116.289 E425.93901
G1 X88.461 Y117.448 E426.06476
G1 X136.176 Y69.733 E433.13452
G1 X137.022 Y70.359 E433.24478
G1 X88.772 Y118.608 E440.39373
G1 X89.083 Y119.768 E440.51955
G1 X137.867 Y70.984 E447.7477
G1 X138.713 Y71.609 E447.8579
G1 X89.381 Y120.941 E455.16724
G1 X89.678 Y121.76 E455.25852
G1 X89.808 Y121.985 E455.28574
G1 X139.558 Y72.234 E462.65709
G1 X140.404 Y72.86 E462.76735
G1 X90.423 Y122.841 E470.17285
G1 X90.989 Y123.36 E470.25331
G1 X91.254 Y123.481 E470.28383
G1 X141.25 Y73.485 E477.69156
G1 X142.095 Y74.11 E477.80167
G1 X92.053 Y124.152 E485.21621
G1 X92.898 Y124.777 E485.32633
G1 X142.94 Y74.736 E492.74079
G1 X143.786 Y75.361 E492.85099
G1 X93.744 Y125.403 E500.26553
G1 X94.59 Y126.028 E500.37573
G1 X144.632 Y75.986 E507.79027
G1 X145.477 Y76.611 E507.90039
G1 X95.435 Y126.653 E515.31493
G1 X96.281 Y127.278 E515.42513
G1 X146.322 Y77.237 E522.83952
G1 X147.168 Y77.862 E522.94972
G1 X97.126 Y127.904 E530.36426
G1 X97.972 Y128.529 E530.47446
G1 X148.014 Y78.487 E537.889
G1 X148.859 Y79.112 E537.99911
G1 X98.817 Y129.154 E545.41365
G1 X99.663 Y129.779 E545.52385
G1 X149.704 Y79.738 E552.93824
G1 X150.55 Y80.363 E553.04844
G1 X100.508 Y130.405 E560.46298
G1 X101.354 Y131.03 E560.57318
G1 X151.396 Y80.988 E567.98772
G1 X152.242 Y81.613 E568.09792
G1 X102.2 Y131.655 E575.51246
G1 X103.045 Y132.28 E575.62258
G1 X153.087 Y82.238 E583.03712
G1 X153.932 Y82.864 E583.14729
G1 X103.891 Y132.905 E590.56169
G1 X104.736 Y133.531 E590.67186
G1 X154.778 Y83.489 E598.0864
G1 X155.624 Y84.114 E598.1966
G1 X105.582 Y134.156 E605.61114
G1 X106.427 Y134.781 E605.72126
G1 X156.469 Y84.739 E613.1358
G1 X157.314 Y85.365 E613.24598
G1 X107.273 Y135.406 E620.66037
G1 X108.119 Y136.031 E620.77057
G1 X158.16 Y85.99 E628.18496
G1 X159.006 Y86.615 E628.29516
G1 X108.964 Y136.657 E635.7097
G1 X109.809 Y137.282 E635.81981
G1 X159.851 Y87.24 E643.23435
G1 X160.696 Y87.866 E643.34453
G1 X110.655 Y137.907 E650.75892
G1 X111.501 Y138.532 E650.86912
G1 X161.439 Y88.594 E658.26825
G1 X162.056 Y88.875 E658.33928
G1 X162.368 Y89.136 E658.3819
G1 X112.346 Y139.158 E665.79348
G1 X113.192 Y139.783 E665.90368
G1 X163.05 Y89.925 E673.29096
G1 X163.371 Y90.483 E673.3584
G1 X163.524 Y90.921 E673.40701
G1 X114.037 Y140.408 E680.73932
G1 X114.883 Y141.033 E680.84952
G1 X163.855 Y92.061 E688.10552
G1 X164.165 Y93.221 E688.23132
G1 X115.729 Y141.658 E695.40797
G1 X116.574 Y142.284 E695.51815
G1 X164.476 Y94.382 E702.61562
G1 X164.786 Y95.542 E702.74141
G1 X117.419 Y142.909 E709.75961
G1 X118.265 Y143.534 E709.86981
G1 X165.097 Y96.702 E716.80873
G1 X165.408 Y97.862 E716.93456
G1 X119.111 Y144.159 E723.79422
G1 X119.956 Y144.784 E723.90433
G1 X165.718 Y99.023 E730.68464
G1 X166.029 Y100.183 E730.81047
G1 X120.85 Y145.361 E737.5044
G1 X121.286 Y145.553 E737.55431
G1 X121.937 Y145.745 E737.62542
G1 X166.217 Y101.466 E744.18616
G1 X166.221 Y102.932 E744.33975
G1 X123.339 Y145.815 E750.69349
G1 X124.809 Y145.815 E750.8475
G1 X166.22 Y104.404 E756.98322
G1 X166.22 Y105.874 E757.13723
G1 X126.279 Y145.816 E763.05522
G1 X127.749 Y145.817 E763.20923
G1 X166.22 Y107.346 E768.90933
G1 X166.219 Y108.817 E769.06345
G1 X129.219 Y145.817 E774.54561
G1 X130.689 Y145.818 E774.69962
G1 X166.219 Y110.288 E779.96397
G1 X166.219 Y110.811 E780.01876
G1 X166.16 Y111.461 E780.08714
G1 X166.067 Y111.911 E780.13528
G1 X132.316 Y145.662 E785.13605
G1 X134.325 Y145.124 E785.35394
G1 X165.532 Y113.917 E789.97777
G1 X164.992 Y115.927 E790.19582
G1 X136.334 Y144.586 E794.44205
G1 X138.343 Y144.048 E794.65995
G1 X164.453 Y117.937 E798.52865
G1 X163.914 Y119.947 E798.74667
G1 X140.352 Y143.509 E802.23777
G1 X141.363 Y143.238 E802.34743
G1 X141.963 Y143.012 E802.4146
G1 X142.729 Y142.603 E802.50558
G1 X163.006 Y122.326 E805.50995
G1 X160.995 Y125.807 E805.93113
G1 X146.216 Y140.587 E808.12096
G1 X149.703 Y138.57 E808.54301
G1 X158.986 Y129.287 E809.91843
G1 X158.611 Y129.937 E809.99705
G1 X158.27 Y130.462 E810.06264
G1 X157.822 Y130.962 E810.13298
G1 X151.097 Y137.678 E811.12873
G1 X150.457 Y138.134 E811.21106
G1 F1500 E810.21106
G0 F600 X150.457 Y138.134 Z0.75
G0 F9000 X159.892 Y87.06
;TIME_ELAPSED:538.951176
;LAYER:-4
M106 S255
;TYPE:SUPPORT-INTERFACE
G1 F1500 E811.21106
G1 F1800 X163.676 Y90.844 E811.37793
G1 X163.525 Y90.411 E811.39222
G1 X163.183 Y89.816 E811.41362
G1 X162.853 Y89.385 E811.43055
G1 X162.487 Y89.012 E811.44684
G1 X162.148 Y88.731 E811.46057
G1 X161.58 Y88.472 E811.48004
G1 X161.64 Y88.352 E811.48422
G1 X157.178 Y85.053 E811.65725
G1 X163.975 Y91.85 E811.95698
G1 X164.234 Y92.816 E811.98817
G1 X154.463 Y83.045 E812.41904
G1 X151.749 Y81.039 E812.52427
G1 X164.493 Y93.782 E813.08622
G1 X164.752 Y94.748 E813.11741
G1 X149.035 Y79.031 E813.81048
G1 X146.321 Y77.024 E813.91574
G1 X165.01 Y95.713 E814.73987
G1 X165.269 Y96.679 E814.77105
G1 X143.606 Y75.017 E815.72631
G1 X140.892 Y73.01 E815.83156
G1 X165.527 Y97.645 E816.91789
G1 X165.785 Y98.61 E816.94904
G1 X138.178 Y71.003 E818.16643
G1 X135.464 Y68.996 E818.27168
G1 X166.044 Y99.576 E819.62017
G1 X166.249 Y100.343 E819.64493
G1 X166.279 Y100.518 E819.65046
G1 X132.803 Y67.042 E821.12666
G1 X132.418 Y66.787 E821.14106
G1 X131.81 Y66.519 E821.16177
G1 X131.474 Y66.42 E821.1727
G1 X166.379 Y101.325 E822.71191
G1 X166.392 Y102.045 E822.73436
G1 X130.601 Y66.254 E824.31264
G1 X129.89 Y66.25 E824.33481
G1 X166.392 Y102.753 E825.94447
G1 X166.392 Y103.46 E825.96651
G1 X129.183 Y66.25 E827.60734
G1 X128.475 Y66.25 E827.62942
G1 X166.391 Y104.166 E829.30141
G1 X166.391 Y104.873 E829.32345
G1 X127.768 Y66.25 E831.02662
G1 X127.06 Y66.249 E831.04869
G1 X166.391 Y105.58 E832.78308
G1 X166.391 Y106.287 E832.80512
G1 X126.353 Y66.249 E834.57068
G1 X125.645 Y66.248 E834.59276
G1 X166.391 Y106.994 E836.38954
G1 X166.391 Y107.701 E836.41159
G1 X124.938 Y66.248 E838.23954
G1 X124.23 Y66.247 E838.26162
G1 X166.391 Y108.408 E840.1208
G1 X166.39 Y109.114 E840.14281
G1 X123.523 Y66.247 E842.03312
G1 X122.815 Y66.247 E842.0552
G1 X166.39 Y109.821 E843.97671
G1 X166.39 Y110.529 E843.99879
G1 X122.099 Y66.238 E845.95189
G1 X121.43 Y66.276 E845.97279
G1 X166.355 Y111.2 E847.95383
G1 X166.261 Y111.813 E847.97317
G1 X120.824 Y66.377 E849.97679
G1 X120.261 Y66.521 E849.99491
G1 X166.121 Y112.38 E852.01718
G1 X165.971 Y112.938 E852.03519
G1 X119.703 Y66.67 E854.07548
G1 X119.145 Y66.819 E854.09349
G1 X165.821 Y113.496 E856.15179
G1 X165.672 Y114.053 E856.16977
G1 X118.587 Y66.969 E858.24606
G1 X118.03 Y67.118 E858.26404
G1 X165.522 Y114.611 E860.35832
G1 X165.373 Y115.169 E860.37633
G1 X117.472 Y67.267 E862.48865
G1 X116.914 Y67.416 E862.50666
G1 X165.223 Y115.726 E864.63697
G1 X165.074 Y116.284 E864.65497
G1 X116.356 Y67.565 E866.80332
G1 X115.798 Y67.715 E866.82134
G1 X164.924 Y116.841 E868.98765
G1 X164.775 Y117.399 E869.00566
G1 X115.24 Y67.864 E871.19001
G1 X114.682 Y68.013 E871.20802
G1 X164.625 Y117.956 E873.41036
G1 X164.476 Y118.514 E873.42837
G1 X114.124 Y68.162 E875.64875
G1 X113.566 Y68.311 E875.66676
G1 X164.326 Y119.071 E877.90513
G1 X164.177 Y119.629 E877.92314
G1 X113.008 Y68.461 E880.17952
G1 X112.45 Y68.61 E880.19753
G1 X164.027 Y120.186 E882.47191
G1 X163.878 Y120.744 E882.48992
G1 X111.893 Y68.759 E884.78231
G1 X111.355 Y68.929 E884.7999
G1 X163.705 Y121.279 E887.10838
G1 X163.497 Y121.778 E887.12524
G1 X110.86 Y69.141 E889.44638
G1 X110.398 Y69.386 E889.46269
G1 X163.252 Y122.24 E891.7934
G1 X162.993 Y122.688 E891.80953
G1 X109.95 Y69.645 E894.14858
G1 X109.502 Y69.904 E894.16471
G1 X162.734 Y123.136 E896.51209
G1 X162.475 Y123.585 E896.52825
G1 X109.054 Y70.163 E898.88399
G1 X108.606 Y70.422 E898.90012
G1 X162.217 Y124.033 E901.26421
G1 X161.958 Y124.481 E901.28035
G1 X108.158 Y70.681 E903.65277
G1 X107.71 Y70.94 E903.66891
G1 X161.699 Y124.93 E906.04969
G1 X161.44 Y125.378 E906.06583
G1 X107.262 Y71.199 E908.45494
G1 X106.813 Y71.458 E908.47111
G1 X161.181 Y125.826 E910.86858
G1 X160.923 Y126.274 E910.8847
G1 X106.366 Y71.718 E913.29048
G1 X105.918 Y71.976 E913.3066
G1 X160.664 Y126.723 E915.72077
G1 X160.405 Y127.171 E915.7369
G1 X105.469 Y72.235 E918.15942
G1 X105.022 Y72.495 E918.17555
G1 X160.146 Y127.619 E920.60636
G1 X159.887 Y128.068 E920.62252
G1 X104.573 Y72.754 E923.06171
G1 X104.125 Y73.012 E923.07783
G1 X159.629 Y128.516 E925.5254
G1 X159.37 Y128.964 E925.54153
G1 X103.677 Y73.272 E927.99741
G1 X103.229 Y73.531 E928.01355
G1 X159.111 Y129.413 E930.47778
G1 X158.852 Y129.861 E930.49392
G1 X102.781 Y73.789 E932.96651
G1 X102.346 Y74.062 E932.98252
G1 X158.58 Y130.296 E935.46228
G1 X158.281 Y130.704 E935.47805
G1 X101.934 Y74.357 E937.96279
G1 X101.562 Y74.692 E937.9784
G1 X157.946 Y131.076 E940.46478
G1 X157.593 Y131.43 E940.48036
G1 X101.208 Y75.045 E942.96678
G1 X100.855 Y75.399 E942.98237
