;FLAVOR:Marlin
;TIME:10001
;Filament used: 8.40941m
;Layer height: 0.15
;MINX:77.248
;MINY:86.756
;MINZ:0.3
;MAXX:158.131
;MAXY:157.644
;MAXZ:22.775
;TARGET_MACHINE.NAME:ELEGOO NEPTUNE 3 Pro
;Generated with Cura_SteamEngine 5.10.0
M140 S60
M105
M190 S60
M104 S210
M105
M109 S210
;ELEGOO NEPTUNE 3 Pro
M220 S100 ;Set the feed speed to 100%
M221 S100 ;Set the flow rate to 100%
G90
G28 ;home
;M420 S1 Z10;Uncomment to enable progressive compensation height of 10mm
G92 E0 ;Reset Extruder
G1 Z0.45 F300
G1 X1.5 Y20 F5000.0 ;Move to start position
G1 Y120.0 F600.0 E15 ;Draw the first line
G1 X0.5 F1000.0 ;Move to side a little
G1 Y20 F600 E30 ;Draw the second line
G92 E0 ;Reset Extruder
M82 ;absolute extrusion mode
G92 E0
G92 E0
G1 F1500 E-1
;LAYER_COUNT:145
;LAYER:-6
M107
M204 S1000
G0 F9000 X88.27 Y94.68 Z0.3
;TYPE:SUPPORT-INTERFACE
G1 F1500 E0
G1 F720 X88.774 Y94.3 E0.06298
G1 X89.301 Y93.87 E0.13085
G1 X89.934 Y93.168 E0.22517
G1 X90.16 Y92.899 E0.26022
G1 X90.607 Y92.451 E0.32337
G1 X96.685 Y87.617 E1.09826
G1 X97.346 Y87.24 E1.17419
G1 X97.959 Y86.981 E1.24059
G1 X98.652 Y86.841 E1.31113
G1 X98.66 Y86.831 E1.31241
G1 X99.432 Y86.772 E1.38966
G1 X135.782 Y86.756 E5.01668
G1 X136.301 Y86.782 E5.06853
G1 X137.05 Y86.953 E5.14519
G1 X137.582 Y87.147 E5.20169
G1 X138.255 Y87.497 E5.27738
G1 X144.688 Y92.243 E6.07505
G1 X145.188 Y92.754 E6.14639
G1 X145.861 Y93.591 E6.25355
G1 X146.319 Y94.03 E6.31686
G1 X146.863 Y94.479 E6.38724
G1 X147.363 Y95.028 E6.46133
G1 X152.038 Y100.906 E7.21073
G1 X152.44 Y101.528 E7.28462
G1 X152.69 Y102.021 E7.33978
G1 X152.684 Y102.03 E7.34086
G1 X156.443 Y110.65 E8.27919
G1 X156.641 Y111.319 E8.3488
G1 X158.085 Y120.901 E9.31569
G1 X158.131 Y121.748 E9.40033
G1 X157.067 Y131.244 E10.35378
G1 X156.95 Y131.936 E10.42381
G1 X156.743 Y132.572 E10.49054
G1 X153.419 Y141.033 E11.3976
G1 X153.105 Y141.732 E11.47406
G1 X152.766 Y142.286 E11.53886
G1 X152.704 Y142.359 E11.54842
G1 X147.632 Y149.217 E12.39953
G1 X147.121 Y149.724 E12.47135
G1 X146.515 Y150.18 E12.54703
G1 X145.968 Y150.633 E12.61789
G1 X145.088 Y151.612 E12.74924
G1 X144.553 Y152.121 E12.82292
G1 X138.695 Y156.787 E13.5702
G1 X137.958 Y157.202 E13.65459
G1 X137.221 Y157.461 E13.73254
G1 X136.725 Y157.569 E13.78319
G1 X135.952 Y157.628 E13.86054
G1 X99.743 Y157.644 E17.47349
G1 X99.059 Y157.606 E17.54185
G1 X98.336 Y157.446 E17.61574
G1 X97.786 Y157.248 E17.67406
G1 X97.256 Y156.97 E17.73378
G1 X96.825 Y156.687 E17.78523
G1 X93.567 Y154.288 E18.18893
G1 X93.164 Y153.953 E18.24122
G1 X92.747 Y153.529 E18.30056
G1 X92.334 Y152.986 E18.36864
G1 X91.754 Y151.909 E18.49069
G1 X91.383 Y151.389 E18.55443
G1 X90.917 Y150.882 E18.62314
G1 X90.379 Y150.428 E18.69338
G1 X89.797 Y150.059 E18.76214
G1 X88.929 Y149.651 E18.85784
G1 X88.906 Y149.666 E18.86058
G1 X88.327 Y149.355 E18.92616
G1 X87.752 Y148.913 E18.99853
G1 X87.302 Y148.471 E19.06147
G1 X83.444 Y143.626 E19.67945
G1 X83.036 Y143.056 E19.74939
G1 X82.719 Y142.422 E19.82012
G1 X78.937 Y133.754 E20.76376
G1 X78.737 Y133.076 E20.83429
G1 X77.295 Y123.487 E21.80184
G1 X77.248 Y122.653 E21.88519
G1 X78.313 Y113.16 E22.83835
G1 X78.43 Y112.468 E22.90838
G1 X78.637 Y111.832 E22.97511
G1 X82.068 Y103.11 E23.91031
G1 X82.294 Y102.625 E23.9637
G1 X82.728 Y101.975 E24.04169
G1 X87.747 Y95.192 E24.88363
G1 X88.27 Y94.68 E24.95666
G0 F9000 X88.362 Y95.15
G1 F720 X144.669 Y151.457 E32.90219
G0 F9000 X145.762 Y150.287
G1 F720 X89.605 Y94.13 E40.82655
G0 F9000 X90.681 Y92.944
G1 F720 X147.009 Y149.272 E48.77503
G0 F9000 X148.021 Y148.021
G1 F720 X91.92 Y91.92 E56.69149
G0 F9000 X93.18 Y90.917
G1 F720 X148.983 Y146.72 E64.5659
G0 F9000 X149.946 Y145.421
G1 F720 X94.44 Y89.914 E72.39846
G0 F9000 X95.701 Y88.912
G1 F720 X150.909 Y144.12 E80.18891
G0 F9000 X151.871 Y142.82
G1 F720 X96.968 Y87.917 E87.93632
G0 F9000 X98.574 Y87.261
G1 F720 X152.785 Y141.471 E95.586
G0 F9000 X153.446 Y139.87
G1 F720 X100.749 Y87.172 E103.02219
G0 F9000 X103.01 Y87.171
G1 F720 X154.084 Y138.245 E110.22928
G0 F9000 X154.723 Y136.621
G1 F720 X105.272 Y87.17 E117.20735
G0 F9000 X107.533 Y87.169
G1 F720 X155.361 Y134.997 E123.9564
G0 F9000 X155.999 Y133.372
G1 F720 X109.795 Y87.168 E130.47628
G0 F9000 X112.057 Y87.167
G1 F720 X156.585 Y131.695 E136.75967
G0 F9000 X156.84 Y129.687
G1 F720 X114.319 Y87.166 E142.75984
G0 F9000 X116.581 Y87.165
G1 F720 X157.068 Y127.652 E148.47299
G0 F9000 X157.296 Y125.618
G1 F720 X118.842 Y87.164 E153.89927
G0 F9000 X121.104 Y87.163
G1 F720 X157.524 Y123.582 E159.03845
G0 F9000 X157.718 Y121.514
G1 F720 X123.366 Y87.162 E163.88589
G0 F9000 X125.627 Y87.161
G1 F720 X157.381 Y118.915 E168.36672
G0 F9000 X156.98 Y116.25
G1 F720 X127.889 Y87.16 E172.47171
G0 F9000 X130.151 Y87.159
G1 F720 X156.578 Y113.586 E176.20084
G0 F9000 X156.078 Y110.823
G1 F720 X132.413 Y87.158 E179.54023
G0 F9000 X134.674 Y87.157
G1 F720 X154.337 Y106.819 E182.31482
G0 F9000 X152.586 Y102.806
G1 F720 X137.221 Y87.441 E184.48299
G1 F1500 E183.48299
G0 F9000 X87.35 Y96.401
G1 F1500 E184.48299
G1 F720 X143.443 Y152.494 E192.39831
G0 F9000 X142.183 Y153.497
G1 F720 X86.387 Y97.701 E200.27173
G0 F9000 X85.426 Y99.002
G1 F720 X140.924 Y154.5 E208.1031
G0 F9000 X139.663 Y155.503
G1 F720 X84.463 Y100.302 E215.89249
G0 F9000 X83.501 Y101.603
G1 F720 X138.394 Y156.496 E223.63848
G0 F9000 X136.781 Y157.145
G1 F720 X82.584 Y102.949 E231.28619
G0 F9000 X81.929 Y104.556
G1 F720 X134.601 Y157.228 E238.71878
G0 F9000 X132.339 Y157.229
G1 F720 X81.29 Y106.181 E245.92228
G0 F9000 X80.651 Y107.804
G1 F720 X130.077 Y157.23 E252.89682
G0 F9000 X127.816 Y157.232
G1 F720 X80.013 Y109.428 E259.64241
G0 F9000 X79.373 Y111.052
G1 F720 X125.554 Y157.232 E266.15898
G0 F9000 X123.293 Y157.234
G1 F720 X78.791 Y112.732 E272.43869
G0 F9000 X78.538 Y114.742
G1 F720 X121.031 Y157.234 E278.43484
G0 F9000 X118.768 Y157.235
G1 F720 X78.309 Y116.776 E284.14404
G0 F9000 X78.082 Y118.811
G1 F720 X116.507 Y157.237 E289.5663
G0 F9000 X114.245 Y157.237
G1 F720 X77.853 Y120.845 E294.7016
G0 F9000 X77.664 Y122.919
G1 F720 X111.984 Y157.239 E299.54452
G0 F9000 X109.722 Y157.239
G1 F720 X78.006 Y125.523 E304.01999
G0 F9000 X78.407 Y128.187
G1 F720 X107.46 Y157.241 E308.11976
G0 F9000 X105.198 Y157.241
G1 F720 X78.807 Y130.85 E311.84381
G0 F9000 X79.316 Y133.622
G1 F720 X102.936 Y157.242 E315.17685
G0 F9000 X100.675 Y157.244
M104 S200
G1 F720 X81.067 Y137.636 E317.94375
G0 F9000 X82.818 Y141.649
G1 F720 X98.108 Y156.939 E320.10133
G1 F1500 E319.10133
G0 F600 X98.108 Y156.939 Z0.6
G0 F9000 X142.165 Y153.462
;TIME_ELAPSED:276.161784
;LAYER:-5
;TYPE:SUPPORT
G1 F1500 E320.10133
G1 F1080 X149.012 Y146.615 E321.11583
G0 F9000 X144.306 Y151.758
G1 F1080 X144.775 Y151.307 E321.184
G1 X145.053 Y150.989 E321.22825
G1 X145.729 Y150.255 E321.3328
G1 X146.278 Y149.811 E321.40677
G1 X146.828 Y149.399 E321.47877
G1 X147.296 Y148.936 E321.54774
G1 X152.34 Y142.113 E322.43671
G1 X152.623 Y141.68 E322.4909
G1 X152.766 Y141.39 E322.52478
G1 X137.131 Y157.026 E324.84144
G1 X136.747 Y157.126 E324.88301
G1 X135.894 Y157.188 E324.97261
G1 X135.497 Y157.188 E325.01421
G1 X153.784 Y138.902 E327.72365
G1 X154.737 Y136.478 E327.99653
G1 X134.026 Y157.189 E331.06521
G1 X132.554 Y157.19 E331.21943
G1 X155.69 Y134.054 E334.6474
G1 X156.326 Y132.436 E334.82955
G1 X156.527 Y131.826 E334.89684
G1 X156.541 Y131.732 E334.90679
G1 X131.083 Y157.191 E338.67889
G1 X129.611 Y157.191 E338.83311
G1 X156.76 Y130.043 E342.8556
G1 X156.947 Y128.384 E343.03051
G1 X128.14 Y157.192 E347.29882
G1 X126.668 Y157.193 E347.45304
G1 X157.135 Y126.726 E351.96722
G1 X157.322 Y125.068 E352.14203
G1 X125.197 Y157.193 E356.90187
G1 X123.725 Y157.194 E357.05609
G1 X157.509 Y123.41 E362.06175
G1 X157.648 Y122.189 E362.19049
G1 X157.62 Y121.829 E362.22833
G1 X122.254 Y157.195 E367.46838
G1 X120.782 Y157.195 E367.6226
G1 X157.57 Y120.408 E373.07327
G1 X157.379 Y119.128 E373.20886
G1 X119.311 Y157.196 E378.84925
G1 X117.839 Y157.197 E379.00347
G1 X157.186 Y117.85 E384.83337
G1 X156.994 Y116.572 E384.96877
G1 X116.367 Y157.198 E390.98825
G1 X114.896 Y157.199 E391.14237
G1 X156.802 Y115.293 E397.35143
G1 X156.609 Y114.015 E397.48684
G1 X113.424 Y157.2 E403.8854
G1 X111.953 Y157.2 E404.03952
G1 X156.418 Y112.735 E410.62774
G1 X156.226 Y111.456 E410.76324
G1 X110.481 Y157.201 E417.54111
G1 X109.01 Y157.202 E417.69522
G1 X155.844 Y110.368 E424.63445
G1 X155.397 Y109.344 E424.75151
G1 X107.538 Y157.203 E431.8426
G1 X106.067 Y157.203 E431.99671
G1 X154.95 Y108.32 E439.23953
G1 X154.503 Y107.296 E439.35659
G1 X104.595 Y157.204 E446.75128
G1 X103.124 Y157.205 E446.90539
G1 X154.056 Y106.272 E454.45187
G1 X153.609 Y105.249 E454.56884
G1 X101.652 Y157.205 E462.26704
G1 X100.181 Y157.206 E462.42116
G1 X153.162 Y104.225 E470.27116
G1 X152.715 Y103.201 E470.38822
G1 X98.81 Y157.106 E478.37513
G1 X98.348 Y157.004 E478.42469
G1 X97.714 Y156.732 E478.49697
G1 X152.268 Y102.177 E486.58011
G1 X152.021 Y101.685 E486.63779
G1 X151.733 Y101.241 E486.69324
G1 X96.827 Y156.148 E494.82853
G1 X95.981 Y155.522 E494.9388
G1 X150.956 Y100.548 E503.08417
G1 X150.87 Y100.472 E503.09619
G1 X151.059 Y100.377 E503.11835
G1 X150.437 Y99.596 E503.22296
G1 X95.135 Y154.898 E511.41685
G1 X94.288 Y154.274 E511.52707
G1 X149.785 Y98.777 E519.74986
G1 X149.134 Y97.958 E519.85947
G1 X93.46 Y153.631 E528.10841
G1 X93.092 Y153.255 E528.16353
G1 X92.778 Y152.843 E528.2178
G1 X148.482 Y97.139 E536.47126
G1 X147.83 Y96.32 E536.58094
G1 X92.249 Y151.901 E544.81617
G1 X92.13 Y151.678 E544.84265
G1 X91.66 Y151.019 E544.92746
G1 X147.178 Y95.501 E553.15336
G1 X146.907 Y95.16 E553.19899
G1 X146.884 Y95.208 E553.20457
G1 X146.442 Y94.766 E553.27006
G1 X90.908 Y150.3 E561.49833
G1 X90.644 Y150.078 E561.53447
G1 X90.044 Y149.694 E561.6091
G1 X145.699 Y94.039 E569.8553
G1 X145.511 Y93.86 E569.88249
G1 X145.02 Y93.247 E569.96478
G1 X89.03 Y149.237 E578.26061
G1 X88.485 Y148.921 E578.32662
G1 X88.139 Y148.656 E578.37228
G1 X144.298 Y92.498 E586.69308
G1 X143.452 Y91.873 E586.80328
G1 X87.416 Y147.909 E595.10592
G1 X86.764 Y147.09 E595.2156
G1 X142.606 Y91.249 E603.48943
G1 X141.76 Y90.624 E603.59963
G1 X86.111 Y146.272 E611.84487
G1 X85.46 Y145.453 E611.95448
G1 X140.914 Y89.998 E620.17097
G1 X140.068 Y89.374 E620.2811
G1 X84.808 Y144.634 E628.46878
G1 X84.155 Y143.816 E628.57844
G1 X139.222 Y88.749 E636.73751
G1 X138.376 Y88.125 E636.84765
G1 X83.526 Y142.974 E644.9745
G1 X83.362 Y142.719 E645.00626
G1 X83.009 Y142.021 E645.08821
G1 X137.451 Y87.579 E653.15468
G1 X137.06 Y87.407 E653.19944
G1 X136.32 Y87.239 E653.27894
G1 X82.573 Y140.986 E661.24244
G1 X82.126 Y139.962 E661.3595
G1 X134.891 Y87.198 E669.17742
G1 X133.419 Y87.198 E669.33164
G1 X81.679 Y138.938 E676.99777
G1 X81.232 Y137.914 E677.11483
G1 X131.948 Y87.199 E684.62916
G1 X130.476 Y87.2 E684.78338
G1 X80.785 Y136.891 E692.14591
G1 X80.338 Y135.867 E692.26297
G1 X129.005 Y87.2 E699.47378
G1 X127.533 Y87.201 E699.628
G1 X79.891 Y134.843 E706.68694
G1 X79.446 Y133.818 E706.80402
G1 X126.062 Y87.202 E713.71094
G1 X124.59 Y87.203 E713.86516
G1 X79.12 Y132.673 E720.60228
G1 X78.924 Y131.397 E720.73754
G1 X123.119 Y87.203 E727.28567
G1 X121.647 Y87.204 E727.43989
G1 X78.732 Y130.119 E733.79845
G1 X78.54 Y128.84 E733.93396
G1 X120.176 Y87.205 E740.10293
G1 X118.704 Y87.205 E740.25716
G1 X78.348 Y127.561 E746.23656
G1 X78.156 Y126.283 E746.37195
G1 X117.233 Y87.206 E752.16185
G1 X115.761 Y87.207 E752.31607
G1 X77.964 Y125.004 E757.91631
G1 X77.772 Y123.725 E758.05182
G1 X114.29 Y87.207 E763.46255
G1 X112.818 Y87.208 E763.61677
G1 X77.725 Y122.302 E768.81645
G1 X77.913 Y120.642 E768.99148
G1 X111.347 Y87.209 E773.9452
G1 X109.875 Y87.21 E774.09942
G1 X78.101 Y118.984 E778.80726
G1 X78.288 Y117.326 E778.98207
G1 X108.404 Y87.21 E783.44424
G1 X106.932 Y87.211 E783.59846
G1 X78.475 Y115.668 E787.81483
G1 X78.663 Y114.01 E787.98965
G1 X105.461 Y87.212 E791.96022
G1 X103.989 Y87.212 E792.11444
G1 X78.971 Y112.231 E795.82134
G1 X79.061 Y111.956 E795.85165
G1 X79.896 Y109.835 E796.09047
G1 X102.518 Y87.213 E799.44229
G1 X101.046 Y87.214 E799.59651
G1 X80.851 Y107.409 E802.58873
G1 X81.807 Y104.983 E802.86192
G1 X99.575 Y87.215 E805.49454
G1 X98.638 Y87.277 E805.59292
G1 X97.827 Y87.491 E805.6808
G1 X83.106 Y102.212 E807.86196
G1 X87.265 Y96.583 E808.59521
G1 X91.688 Y92.159 E809.25063
G1 F1500 E808.25063
G0 F600 X91.688 Y92.159 Z0.75
G0 F9000 X142.8 Y91.181
;TIME_ELAPSED:537.507579
;LAYER:-4
M106 S255
;TYPE:SUPPORT-INTERFACE
G1 F1500 E809.25063
G1 F1800 X148.471 Y96.852 E809.5007
G0 F9000 X147.157 Y95.201
G1 F1800 X146.86 Y94.875 E809.51445
G1 X146.837 Y94.921 E809.51606
G1 X146.185 Y94.269 E809.54481
G1 X145.636 Y93.745 E809.56847
G1 X145.002 Y92.951 E809.60016
G1 X144.605 Y92.547 E809.61782
G1 X144.216 Y92.227 E809.63352
G1 X140.097 Y89.185 E809.79319
G1 X151.339 Y100.427 E810.28893
G1 X151.171 Y100.512 E810.2948
G1 X151.857 Y101.121 E810.3234
G1 X152.167 Y101.598 E810.34114
G1 X152.408 Y102.071 E810.35769
G1 X152.512 Y102.307 E810.36574
G1 X137.714 Y87.509 E811.01829
G1 X137.108 Y87.243 E811.03892
G1 X136.633 Y87.135 E811.05411
G1 X153.059 Y103.561 E811.77845
G1 X153.606 Y104.816 E811.82114
G1 X135.819 Y87.029 E812.60549
G1 X135.113 Y87.029 E812.62751
G1 X154.154 Y106.07 E813.46716
G1 X154.701 Y107.325 E813.50985
G1 X134.405 Y87.029 E814.40485
G1 X133.699 Y87.03 E814.42686
G1 X155.248 Y108.579 E815.37711
G1 X155.795 Y109.833 E815.41977
G1 X132.992 Y87.03 E816.42531
G1 X132.286 Y87.031 E816.44733
G1 X156.291 Y111.037 E817.5059
G1 X156.479 Y111.932 E817.53442
G1 X131.578 Y87.031 E818.63248
G1 X130.872 Y87.031 E818.6545
G1 X156.592 Y112.751 E819.78867
G1 X156.717 Y113.583 E819.81491
G1 X130.165 Y87.031 E820.98577
G1 X129.459 Y87.032 E821.00779
G1 X156.842 Y114.416 E822.21532
G1 X156.967 Y115.248 E822.24156
G1 X128.751 Y87.032 E823.4858
G1 X128.045 Y87.033 E823.50781
G1 X157.092 Y116.08 E824.7887
G1 X157.217 Y116.912 E824.81494
G1 X127.338 Y87.033 E826.13252
G1 X126.631 Y87.033 E826.15456
G1 X157.343 Y117.745 E827.50887
G1 X157.468 Y118.577 E827.53511
G1 X125.924 Y87.034 E828.92608
G1 X125.217 Y87.034 E828.94813
G1 X157.593 Y119.409 E830.3758
G1 X157.717 Y120.241 E830.40202
G1 X124.511 Y87.034 E831.86634
G1 X123.804 Y87.034 E831.88838
G1 X157.826 Y121.057 E833.38868
G1 X157.868 Y121.516 E833.40305
G1 X157.767 Y121.515 E833.4062
G1 X157.783 Y121.721 E833.41264
G1 X123.097 Y87.035 E834.94219
G1 X122.39 Y87.035 E834.96424
G1 X157.792 Y122.436 E836.52534
G1 X157.719 Y123.071 E836.54527
G1 X121.684 Y87.036 E838.13431
G1 X120.977 Y87.036 E838.15636
G1 X157.648 Y123.707 E839.77344
G1 X157.576 Y124.342 E839.79337
G1 X120.27 Y87.036 E841.43846
G1 X119.563 Y87.036 E841.4605
G1 X157.504 Y124.978 E843.13361
G1 X157.432 Y125.613 E843.15354
G1 X118.857 Y87.037 E844.85461
G1 X118.15 Y87.037 E844.87666
G1 X157.36 Y126.248 E846.60573
G1 X157.289 Y126.883 E846.62565
G1 X117.443 Y87.038 E848.38272
G1 X116.736 Y87.038 E848.40477
G1 X157.217 Y127.518 E850.18984
G1 X157.145 Y128.153 E850.20977
G1 X116.03 Y87.038 E852.02282
G1 X115.323 Y87.038 E852.04487
G1 X157.073 Y128.789 E853.88594
G1 X157.001 Y129.424 E853.90587
G1 X114.616 Y87.038 E855.77495
G1 X113.909 Y87.039 E855.79699
G1 X156.93 Y130.06 E857.6941
G1 X156.857 Y130.695 E857.71403
G1 X113.202 Y87.039 E859.63911
G1 X112.496 Y87.04 E859.66112
G1 X156.78 Y131.325 E861.61394
G1 X156.68 Y131.931 E861.63309
G1 X111.789 Y87.04 E863.61266
G1 X111.082 Y87.041 E863.6347
G1 X156.499 Y132.457 E865.63744
G1 X156.301 Y132.966 E865.65447
G1 X110.375 Y87.041 E867.67965
G1 X109.669 Y87.041 E867.70167
G1 X156.102 Y133.474 E869.74923
G1 X155.902 Y133.982 E869.76625
G1 X108.962 Y87.041 E871.83619
G1 X108.255 Y87.042 E871.85824
G1 X155.702 Y134.489 E873.95051
G1 X155.503 Y134.997 E873.96753
G1 X107.548 Y87.042 E876.0822
G1 X106.842 Y87.043 E876.10422
G1 X155.303 Y135.504 E878.24121
G1 X155.103 Y136.011 E878.2582
G1 X106.135 Y87.043 E880.41755
G1 X105.428 Y87.043 E880.4396
G1 X154.904 Y136.519 E882.62135
G1 X154.704 Y137.027 E882.63837
G1 X104.721 Y87.043 E884.8425
G1 X104.014 Y87.043 E884.86454
G1 X154.504 Y137.534 E887.09103
G1 X154.305 Y138.041 E887.10801
G1 X103.308 Y87.044 E889.35683
