;FLAVOR:Marlin
;TIME:5465
;Filament used: 5.17452m
;Layer height: 0.15
;MINX:79.671
;MINY:77.356
;MINZ:0.3
;MAXX:155.325
;MAXY:157.64
;MAXZ:11.975
;TARGET_MACHINE.NAME:ELEGOO NEPTUNE 3 Pro
;Generated with Cura_SteamEngine 5.10.0
M140 S60
M105
M190 S60
M104 S210
M105
M109 S210
;ELEGOO NEPTUNE 3 Pro
M220 S100 ;Set the feed speed to 100%
M221 S100 ;Set the flow rate to 100%
G90
G28 ;home
;M420 S1 Z10;Uncomment to enable progressive compensation height of 10mm
G92 E0 ;Reset Extruder
G1 Z0.45 F300
G1 X1.5 Y20 F5000.0 ;Move to start position
G1 Y120.0 F600.0 E15 ;Draw the first line
G1 X0.5 F1000.0 ;Move to side a little
G1 Y20 F600 E30 ;Draw the second line
G92 E0 ;Reset Extruder
M82 ;absolute extrusion mode
G92 E0
G92 E0
G1 F1500 E-1
;LAYER_COUNT:73
;LAYER:-6
M107
M204 S1000
G0 F9000 X89.144 Y89.088 Z0.3
;TYPE:SUPPORT-INTERFACE
G1 F1500 E0
G1 F720 X92.375 Y85.855 E0.45607
G1 X92.857 Y85.426 E0.52045
G1 X93.439 Y85.041 E0.59008
G1 X101.395 Y80.444 E1.50693
G1 X101.878 Y80.199 E1.56096
G1 X102.531 Y79.954 E1.63056
G1 X111.555 Y77.536 E2.56274
G1 X112.119 Y77.402 E2.62058
G1 X112.928 Y77.356 E2.70143
G1 X122.101 Y77.356 E3.61672
G1 X122.725 Y77.391 E3.67908
G1 X123.264 Y77.487 E3.73371
G1 X132.457 Y79.954 E4.68345
G1 X133.316 Y80.275 E4.77495
G1 X141.55 Y85.033 E5.72384
G1 X142.116 Y85.403 E5.79131
G1 X142.621 Y85.852 E5.85874
G1 X148.521 Y91.755 E6.69151
G1 X148.975 Y92.262 E6.75941
G1 X149.336 Y92.836 E6.82707
G1 X149.59 Y93.382 E6.88716
G1 X149.772 Y93.957 E6.94734
G1 X149.878 Y94.474 E7
G1 X155.246 Y130.281 E10.61276
G1 X155.325 Y131.121 E10.69695
G1 X155.207 Y132.05 E10.79039
G1 X155.006 Y132.69 E10.85732
G1 X154.713 Y133.314 E10.92611
G1 X149.872 Y141.691 E11.8915
G1 X149.562 Y142.151 E11.94685
G1 X149.215 Y142.546 E11.99931
G1 X142.621 Y149.144 E12.93008
G1 X142.151 Y149.562 E12.99284
G1 X141.56 Y149.956 E13.06371
G1 X133.601 Y154.552 E13.98076
G1 X133.118 Y154.797 E14.0348
G1 X132.465 Y155.042 E14.1044
G1 X123.442 Y157.463 E15.03656
G1 X122.879 Y157.594 E15.09424
G1 X122.068 Y157.64 E15.17529
G1 X112.895 Y157.64 E16.09057
G1 X112.273 Y157.605 E16.15273
G1 X111.73 Y157.512 E16.2077
G1 X102.538 Y155.042 E17.15742
G1 X101.916 Y154.812 E17.22359
G1 X101.394 Y154.551 E17.28183
G1 X93.321 Y149.883 E18.21232
G1 X92.773 Y149.493 E18.27943
G1 X92.37 Y149.14 E18.33289
G1 X86.42 Y143.181 E19.17313
G1 X85.968 Y142.643 E19.24325
G1 X85.575 Y142.021 E19.31666
G1 X85.269 Y141.248 E19.39962
G1 X85.118 Y140.529 E19.47292
G1 X79.738 Y104.628 E23.09514
G1 X79.671 Y103.871 E23.17097
G1 X79.74 Y103.309 E23.22746
G1 X79.911 Y102.472 E23.31271
G1 X80.319 Y101.615 E23.40741
G1 X85.119 Y93.314 E24.3642
G1 X85.437 Y92.85 E24.42032
G1 X85.785 Y92.449 E24.4733
G1 X89.144 Y89.088 E24.94743
G0 F9000 X89.399 Y89.399
G1 F720 X145.599 Y145.599 E32.87786
G0 F9000 X146.73 Y144.468
G1 F720 X90.529 Y88.267 E40.80843
G0 F9000 X91.661 Y87.135
G1 F720 X147.861 Y143.335 E48.73886
G0 F9000 X148.987 Y142.199
G1 F720 X92.801 Y86.012 E56.66738
G0 F9000 X94.146 Y85.095
G1 F720 X149.899 Y140.848 E64.53473
G0 F9000 X150.728 Y139.414
G1 F720 X95.58 Y84.267 E72.31664
G0 F9000 X97.014 Y83.438
G1 F720 X151.556 Y137.98 E80.0131
G0 F9000 X152.384 Y136.545
G1 F720 X98.448 Y82.609 E87.62406
G0 F9000 X99.883 Y81.781
G1 F720 X153.213 Y135.111 E95.14949
G0 F9000 X154.042 Y133.677
G1 F720 X101.317 Y80.952 E102.58956
G0 F9000 X102.897 Y80.27
G1 F720 X154.762 Y132.134 E109.9082
G0 F9000 X154.784 Y129.893
G1 F720 X104.682 Y79.792 E116.97807
G0 F9000 X106.467 Y79.314
G1 F720 X154.385 Y127.232 E123.73981
G0 F9000 X153.985 Y124.57
G1 F720 X108.251 Y78.835 E130.19344
G0 F9000 X110.036 Y78.357
G1 F720 X153.586 Y121.908 E136.33889
G0 F9000 X153.188 Y119.246
G1 F720 X111.825 Y77.884 E142.17559
G0 F9000 X113.96 Y77.756
G1 F720 X152.788 Y116.584 E147.65464
G0 F9000 X152.389 Y113.923
G1 F720 X116.223 Y77.756 E152.75812
G0 F9000 X118.486 Y77.756
G1 F720 X151.99 Y111.261 E157.48597
G0 F9000 X151.591 Y108.599
G1 F720 X120.748 Y77.756 E161.83825
G0 F9000 X123.124 Y77.869
G1 F720 X151.192 Y105.937 E165.79895
G0 F9000 X150.793 Y103.276
G1 F720 X126.209 Y78.692 E169.26801
G0 F9000 X129.302 Y79.521
G1 F720 X150.394 Y100.614 E172.24439
G0 F9000 X149.995 Y97.952
G1 F720 X132.403 Y80.36 E174.72681
G0 F9000 X137.407 Y83.101
G1 F720 X149.596 Y95.29 E176.44681
G1 F1500 E175.44681
G0 F9000 X144.468 Y146.731
G1 F1500 E176.44681
G1 F720 X88.268 Y90.531 E184.37724
G0 F9000 X87.137 Y91.662
G1 F720 X143.337 Y147.862 E192.30767
G0 F9000 X142.197 Y148.985
G1 F720 X86.011 Y92.799 E200.23612
G0 F9000 X85.098 Y94.149
G1 F720 X140.851 Y149.902 E208.10347
G0 F9000 X139.417 Y150.731
G1 F720 X84.269 Y95.582 E215.88552
G0 F9000 X83.44 Y97.016
G1 F720 X137.983 Y151.559 E223.58213
G0 F9000 X136.548 Y152.387
G1 F720 X82.611 Y98.45 E231.19322
G0 F9000 X81.782 Y99.884
G1 F720 X135.114 Y153.216 E238.71894
G0 F9000 X133.679 Y154.044
G1 F720 X80.952 Y101.317 E246.15929
G0 F9000 X80.238 Y102.866
G1 F720 X132.098 Y154.726 E253.4773
G0 F9000 X130.314 Y155.204
G1 F720 X80.213 Y105.103 E260.54709
G0 F9000 X80.612 Y107.764
G1 F720 X128.53 Y155.683 E267.30891
G0 F9000 X126.746 Y156.162
G1 F720 X81.01 Y110.426 E273.76275
G0 F9000 X81.41 Y113.088
G1 F720 X124.962 Y156.64 E279.90841
G0 F9000 X123.174 Y157.115
G1 F720 X81.809 Y115.75 E285.74546
G0 F9000 X82.208 Y118.411
G1 F720 X121.036 Y157.24 E291.22458
G0 F9000 X118.773 Y157.24
G1 F720 X82.606 Y121.073 E296.32813
G0 F9000 X83.005 Y123.734
G1 F720 X116.511 Y157.24 E301.05619
G0 F9000 X114.248 Y157.24
G1 F720 X83.404 Y126.396 E305.40861
G0 F9000 X83.803 Y129.058
G1 F720 X111.876 Y157.13 E309.36994
G0 F9000 X108.79 Y156.307
G1 F720 X84.202 Y131.719 E312.83958
G0 F9000 X84.601 Y134.381
G1 F720 X105.695 Y155.476 E315.81624
G0 F9000 X102.592 Y154.635
M104 S200
G1 F720 X85 Y137.043 E318.29866
G0 F9000 X85.399 Y139.705
G1 F720 X97.574 Y151.879 E320.01661
G1 F1500 E319.01661
G0 F600 X97.574 Y151.879 Z0.6
G0 F9000 X138.56 Y151.184
;TIME_ELAPSED:276.119229
;LAYER:-5
;TYPE:SUPPORT
G1 F1500 E320.01661
G1 F1080 X151.171 Y138.573 E321.88514
G1 F1500 E320.88514
G0 F9000 X141.341 Y149.578
G1 F1500 E321.88514
G1 F1080 X141.866 Y149.231 E321.95107
G1 X142.328 Y148.819 E322.01593
G1 X148.824 Y142.323 E322.97841
G1 X149.168 Y141.932 E323.03298
G1 X149.503 Y141.459 E323.0937
G1 X153.187 Y135.086 E323.86493
G1 X135.079 Y153.194 E326.54793
G1 X133.4 Y154.163 E326.75103
G1 X132.937 Y154.398 E326.80543
G1 X132.341 Y154.621 E326.8721
G1 X132.123 Y154.68 E326.89576
G1 X154.728 Y132.074 E330.24513
G1 X154.815 Y131.752 E330.28008
G1 X154.872 Y130.967 E330.36254
G1 X154.827 Y130.505 E330.41117
G1 X130.114 Y155.218 E334.07281
G1 X128.105 Y155.756 E334.2907
G1 X154.644 Y129.217 E338.22289
G1 X154.452 Y127.938 E338.35839
G1 X126.096 Y156.294 E342.5598
G1 X124.087 Y156.832 E342.7777
G1 X154.26 Y126.659 E347.24832
G1 X154.069 Y125.38 E347.3838
G1 X122.248 Y157.201 E352.09861
G1 X120.777 Y157.201 E352.25272
G1 X153.876 Y124.101 E357.15695
G1 X153.685 Y122.822 E357.29244
G1 X119.307 Y157.2 E362.3861
G1 X117.837 Y157.2 E362.54011
G1 X153.493 Y121.543 E367.82321
G1 X153.301 Y120.264 E367.95871
G1 X116.366 Y157.199 E373.43123
G1 X114.896 Y157.199 E373.58524
G1 X153.11 Y118.985 E379.24727
G1 X152.917 Y117.706 E379.38279
G1 X113.426 Y157.198 E385.2341
G1 X112.787 Y157.198 E385.30105
G1 X112.026 Y157.127 E385.38112
G1 X152.726 Y116.427 E391.41149
G1 X152.534 Y115.148 E391.54699
G1 X110.859 Y156.823 E397.72183
G1 X109.699 Y156.512 E397.84765
G1 X152.343 Y113.869 E404.16598
G1 X152.151 Y112.59 E404.30148
G1 X108.539 Y156.201 E410.76324
G1 X107.38 Y155.89 E410.88896
G1 X151.959 Y111.311 E417.49407
G1 X151.767 Y110.032 E417.62957
G1 X106.219 Y155.58 E424.37825
G1 X105.06 Y155.269 E424.50398
G1 X151.575 Y108.753 E431.39601
G1 X151.384 Y107.474 E431.53149
G1 X103.899 Y154.958 E438.5671
G1 X102.742 Y154.645 E438.69267
G1 X151.192 Y106.195 E445.87133
G1 X151.001 Y104.916 E446.00682
G1 X101.7 Y154.216 E453.31149
G1 X100.763 Y153.682 E453.42449
G1 X150.808 Y103.637 E460.83947
G1 X150.617 Y102.358 E460.97496
G1 X99.831 Y153.143 E468.49966
G1 X98.899 Y152.604 E468.61246
G1 X150.425 Y101.079 E476.2468
G1 X150.233 Y99.8 E476.3823
G1 X97.968 Y152.065 E484.12622
G1 X97.036 Y151.527 E484.23896
G1 X150.042 Y98.52 E492.09274
G1 X149.849 Y97.242 E492.22816
G1 X96.104 Y150.988 E500.19143
G1 X95.172 Y150.449 E500.30423
G1 X149.658 Y95.963 E508.37722
G1 X149.466 Y94.684 E508.51272
G1 X94.239 Y149.911 E516.69551
G1 X93.559 Y149.517 E516.77784
G1 X93.327 Y149.352 E516.80767
G1 X149.163 Y93.516 E525.08069
G1 X149.034 Y93.184 E525.118
G1 X148.645 Y92.563 E525.19478
G1 X92.531 Y148.678 E533.50906
G1 X91.795 Y147.942 E533.61811
G1 X147.942 Y91.795 E541.9372
G1 X147.207 Y91.06 E542.0461
G1 X91.06 Y147.207 E550.3652
G1 X90.324 Y146.472 E550.47418
G1 X146.472 Y90.324 E558.79342
G1 X145.736 Y89.589 E558.9024
G1 X89.589 Y145.736 E567.22149
G1 X88.854 Y145.001 E567.33039
G1 X145.001 Y88.854 E575.64949
G1 X144.265 Y88.118 E575.75854
G1 X88.118 Y144.265 E584.07764
G1 X87.383 Y143.53 E584.18654
G1 X143.53 Y87.383 E592.50563
G1 X142.795 Y86.647 E592.61461
G1 X86.639 Y142.803 E600.93504
G1 X86.181 Y142.174 E601.01656
G1 X86.046 Y141.926 E601.04614
G1 X142.042 Y85.929 E609.34294
G1 X141.836 Y85.748 E609.37167
G1 X141.183 Y85.317 E609.45364
G1 X85.638 Y140.863 E617.68361
G1 X85.554 Y140.457 E617.72705
G1 X85.427 Y139.603 E617.81751
G1 X140.243 Y84.787 E625.93939
G1 X139.311 Y84.248 E626.05219
G1 X85.235 Y138.324 E634.06444
G1 X85.043 Y137.045 E634.19994
G1 X138.378 Y83.71 E642.10239
G1 X137.445 Y83.172 E642.21523
G1 X84.851 Y135.766 E650.00789
G1 X84.66 Y134.487 E650.14337
G1 X136.513 Y82.633 E657.82632
G1 X135.581 Y82.095 E657.93906
G1 X84.468 Y133.208 E665.51229
G1 X84.277 Y131.928 E665.64788
G1 X134.648 Y81.557 E673.11117
G1 X133.715 Y81.019 E673.224
G1 X84.085 Y130.649 E680.5775
G1 X83.893 Y129.371 E680.7129
G1 X132.738 Y80.525 E687.95015
G1 X132.333 Y80.378 E687.99529
G1 X131.61 Y80.183 E688.07375
G1 X83.701 Y128.092 E695.17225
G1 X83.509 Y126.813 E695.30775
G1 X130.45 Y79.872 E702.26283
G1 X129.291 Y79.56 E702.38858
G1 X83.318 Y125.533 E709.20023
G1 X83.126 Y124.254 E709.33573
G1 X128.131 Y79.249 E716.00396
G1 X126.972 Y78.938 E716.12968
G1 X82.934 Y122.975 E722.65456
G1 X82.743 Y121.696 E722.79004
G1 X125.812 Y78.627 E729.17142
G1 X124.652 Y78.316 E729.29724
G1 X82.55 Y120.417 E735.53527
G1 X82.359 Y119.138 E735.67076
G1 X123.501 Y77.996 E741.76662
G1 X122.843 Y77.861 E741.83699
G1 X122.223 Y77.804 E741.90222
G1 X82.167 Y117.859 E747.8371
G1 X81.976 Y116.58 E747.97258
G1 X120.753 Y77.802 E753.7181
G1 X119.283 Y77.802 E753.87211
G1 X81.784 Y115.301 E759.4282
G1 X81.592 Y114.022 E759.56371
G1 X117.813 Y77.801 E764.93044
G1 X116.343 Y77.8 E765.08445
G1 X81.4 Y112.743 E770.26183
G1 X81.208 Y111.464 E770.39733
G1 X114.873 Y77.799 E775.38535
G1 X113.403 Y77.799 E775.53936
G1 X81.017 Y110.185 E780.33787
G1 X80.825 Y108.906 E780.47338
G1 X111.799 Y77.932 E785.06268
G1 X109.792 Y78.468 E785.28032
G1 X80.634 Y107.627 E789.60063
G1 X80.442 Y106.347 E789.73624
G1 X107.783 Y79.006 E793.78725
G1 X105.774 Y79.545 E794.00518
G1 X80.25 Y105.068 E797.7869
G1 X80.187 Y104.653 E797.83088
G1 X80.137 Y103.911 E797.90879
G1 X80.153 Y103.694 E797.93159
G1 X103.765 Y80.083 E801.43002
G1 X102.662 Y80.378 E801.54964
G1 X101.891 Y80.668 E801.63594
G1 X101.46 Y80.917 E801.68809
G1 X80.934 Y101.443 E804.72936
G1 X82.938 Y97.968 E805.14963
G1 X97.979 Y82.927 E807.3782
G1 X94.497 Y84.938 E807.79948
G1 X84.942 Y94.494 E809.21528
G1 X85.418 Y93.668 E809.31516
G1 X85.748 Y93.161 E809.37854
G1 X86.181 Y92.672 E809.44697
G1 X92.672 Y86.181 E810.40872
G1 X93.135 Y85.769 E810.47365
G1 X93.663 Y85.42 E810.53996
G1 F1500 E809.53996
G0 F600 X93.663 Y85.42 Z0.75
G0 F9000 X140.74 Y84.878
;TIME_ELAPSED:538.334908
;LAYER:-4
M106 S255
;TYPE:SUPPORT-INTERFACE
G1 F1500 E810.53996
G1 F1800 X149.327 Y93.465 E810.91863
G1 X149.187 Y93.108 E810.93058
G1 X148.829 Y92.536 E810.95162
G1 X148.323 Y91.936 E810.9761
G1 X142.438 Y86.051 E811.23561
G1 X141.943 Y85.616 E811.25616
G1 X141.422 Y85.272 E811.27563
G1 X139.066 Y83.912 E811.36045
G1 X149.599 Y94.445 E811.82492
G1 X149.728 Y95.281 E811.8513
G1 X137.392 Y82.945 E812.39528
G1 X135.719 Y81.979 E812.45552
G1 X149.853 Y96.113 E813.07879
G1 X149.978 Y96.945 E813.10502
G1 X134.046 Y81.013 E813.80758
G1 X133.459 Y80.674 E813.82872
G1 X132.988 Y80.437 E813.84516
G1 X132.631 Y80.305 E813.85702
G1 X150.103 Y97.777 E814.62749
G1 X150.228 Y98.609 E814.65372
G1 X131.629 Y80.011 E815.47386
G1 X130.663 Y79.752 E815.50505
G1 X150.352 Y99.44 E816.37326
G1 X150.477 Y100.272 E816.39949
G1 X129.697 Y79.492 E817.31583
G1 X128.73 Y79.233 E817.34704
G1 X150.602 Y101.104 E818.31151
G1 X150.726 Y101.936 E818.33774
G1 X127.764 Y78.974 E819.3503
G1 X126.798 Y78.714 E819.38149
G1 X150.851 Y102.767 E820.44216
G1 X150.976 Y103.6 E820.46843
G1 X125.831 Y78.455 E821.57725
G1 X124.865 Y78.196 E821.60843
G1 X151.1 Y104.431 E822.76532
G1 X151.225 Y105.263 E822.79156
G1 X123.899 Y77.937 E823.99655
G1 X123.396 Y77.802 E824.01279
G1 X122.969 Y77.715 E824.02638
G1 X151.35 Y106.095 E825.27788
G1 X151.474 Y106.927 E825.30411
G1 X122.18 Y77.633 E826.59589
G1 X121.473 Y77.633 E826.61794
G1 X151.599 Y107.759 E827.94641
G1 X151.724 Y108.59 E827.97261
G1 X120.766 Y77.633 E829.33775
G1 X120.058 Y77.632 E829.35982
G1 X151.848 Y109.422 E830.76167
G1 X151.974 Y110.254 E830.78791
G1 X119.351 Y77.632 E832.22647
G1 X118.644 Y77.632 E832.24851
G1 X152.098 Y111.086 E833.72374
G1 X152.222 Y111.917 E833.74994
G1 X117.936 Y77.631 E835.26185
G1 X117.229 Y77.631 E835.2839
G1 X152.348 Y112.75 E836.83254
G1 X152.472 Y113.581 E836.85874
G1 X116.521 Y77.63 E838.44408
G1 X115.814 Y77.63 E838.46612
G1 X152.596 Y114.413 E840.08813
G1 X152.722 Y115.245 E840.11436
G1 X115.107 Y77.63 E841.77308
G1 X114.399 Y77.63 E841.79515
G1 X152.846 Y116.077 E843.49056
G1 X152.971 Y116.909 E843.51679
G1 X113.692 Y77.63 E845.24888
G1 X112.985 Y77.63 E845.27093
G1 X153.096 Y117.74 E847.03968
G1 X153.22 Y118.572 E847.06591
G1 X112.32 Y77.672 E848.86949
G1 X111.718 Y77.777 E848.88854
G1 X153.345 Y119.404 E850.72417
G1 X153.47 Y120.236 E850.75041
G1 X111.16 Y77.926 E852.61615
G1 X110.602 Y78.075 E852.63416
G1 X153.594 Y121.067 E854.52999
G1 X153.719 Y121.9 E854.55625
G1 X110.045 Y78.225 E856.48217
G1 X109.487 Y78.374 E856.50018
G1 X153.844 Y122.731 E858.4562
G1 X153.969 Y123.563 E858.48243
G1 X108.929 Y78.524 E860.46854
G1 X108.371 Y78.673 E860.48655
G1 X154.093 Y124.395 E862.50276
G1 X154.218 Y125.226 E862.52896
G1 X107.813 Y78.822 E864.57527
G1 X107.256 Y78.972 E864.59326
G1 X154.343 Y126.059 E866.66966
G1 X154.467 Y126.89 E866.69586
G1 X106.698 Y79.121 E868.80233
G1 X106.14 Y79.27 E868.82034
G1 X154.592 Y127.722 E870.95693
G1 X154.717 Y128.554 E870.98317
G1 X105.582 Y79.419 E873.14988
G1 X105.024 Y79.569 E873.1679
G1 X154.842 Y129.386 E875.36471
G1 X154.966 Y130.217 E875.39091
G1 X104.467 Y79.719 E877.61774
G1 X103.909 Y79.868 E877.63575
G1 X155.04 Y130.999 E879.89048
G1 X154.993 Y131.658 E879.91108
G1 X103.351 Y80.017 E882.18833
G1 X102.794 Y80.166 E882.2063
G1 X154.862 Y132.235 E884.50238
G1 X154.677 Y132.757 E884.51964
G1 X102.266 Y80.346 E886.83082
G1 X101.771 Y80.558 E886.84761
G1 X154.447 Y133.234 E889.17047
G1 X154.194 Y133.688 E889.18668
G1 X101.312 Y80.806 E891.51862
G1 X100.864 Y81.065 E891.53476
G1 X153.934 Y134.135 E893.87499
G1 X153.676 Y134.584 E893.89114
G1 X100.416 Y81.324 E896.23975
G1 X99.967 Y81.582 E896.2559
G1 X153.417 Y135.032 E898.61289
G1 X153.157 Y135.48 E898.62904
G1 X99.519 Y81.841 E900.99434
G1 X99.071 Y82.1 E901.01048
G1 X152.898 Y135.928 E903.38412
G1 X152.64 Y136.376 E903.40024
G1 X98.622 Y82.359 E905.78225
G1 X98.174 Y82.618 E905.79839
G1 X152.38 Y136.824 E908.18872
G1 X152.121 Y137.272 E908.20485
G1 X97.726 Y82.877 E910.60352
G1 X97.278 Y83.136 E910.61965
G1 X151.862 Y137.72 E913.02665
G1 X151.603 Y138.168 E913.04279
G1 X96.83 Y83.395 E915.45812
G1 X96.381 Y83.654 E915.47428
G1 X151.344 Y138.616 E917.89797
G1 X151.085 Y139.064 E917.9141
G1 X95.933 Y83.912 E920.34615
G1 X95.485 Y84.171 E920.36229
G1 X150.826 Y139.512 E922.80266
G1 X150.567 Y139.96 E922.8188
G1 X95.037 Y84.43 E925.26751
